!!!COM: Haydn, Franz Joseph
!!!OPR: Symphony in D Major
!!!OTL:
!!!OMV: 3
!!!SCT: H I:104
!!!SCA: Thematisch-bibliographisches Werkevererzeichnis (A. van Hoboken)
!!!YOR: Dover Edition; reprint of Eulenburg Edition
!!!EED: Frances Bennion
!!!ENC: Frances Bennion
!!!CDT: 1732/3/31/-1809/5/31/
!!!OCY: Österreich
!!!YEC: Copyright (c) 1994, 2000 Center for Computer Assisted Research in the Humanities
!!!YEM: Rights to all derivative editions reserved.
!!!YEM: Refer to licensing agreement for further details.
!!!YEN: United States of America
**kern	**dynam	**kern	**dynam	**kern	**dynam	**kern	**dynam	**kern	**dynam	**kern	**dynam	**kern	**dynam	**kern	**dynam	**kern	**dynam
*I:Clarinetto 1, 2 in A	*I:Clarinetto 1, 2 in A	*I:Fagotto 1, 2	*I:Fagotto 1, 2	*I:Corno 1, 2 in D	*I:Corno 1, 2 in D	*I:Tromba 1,2 in D	*I:Tromba 1,2 in D	*I:Timpani in D, A	*I:Timpani in D, A	*I:Violino I	*I:Violino I	*I:Violino II	*I:Violino II	*I:Viola	*I:Viola	*I:Violinocello e Contrabasso	*I:Violinocello e Contrabasso
*>[A,B,B,C,C,D,D,E]	*	*>[A,B,B,C,C,D,D,E]	*	*>[A,B,B,C,C,D,D,E]	*	*>[A,B,B,C,C,D,D,E]	*	*>[A,B,B,C,C,D,D,E]	*	*>[A,B,B,C,C,D,D,E]	*	*>[A,B,B,C,C,D,D,E]	*	*>[A,B,B,C,C,D,D,E]	*	*>[A,B,B,C,C,D,D,E]	*
*>A	*	*>A	*	*>A	*	*>A	*	*>A	*	*>A	*	*>A	*	*>A	*	*>A	*
*clefG2	*	*clefF4	*	*clefG2	*	*clefG2	*	*clefF4	*	*clefG2	*	*clefG2	*	*clefC3	*	*clefF4	*
*k[b-]	*	*k[f#c#]	*	*k[]	*	*k[]	*	*k[]	*	*k[f#c#]	*	*k[f#c#]	*	*k[f#c#]	*	*k[f#c#]	*
*d:	*	*d:	*	*d:	*	*d:	*	*d:	*	*d:	*	*d:	*	*d:	*	*d:	*
*M3/4	*	*M3/4	*	*M3/4	*	*M3/4	*	*M3/4	*	*M3/4	*	*M3/4	*	*M3/4	*	*M3/4	*
*tb32	*	*tb32	*	*tb32	*	*tb32	*	*tb32	*	*tb32	*	*tb32	*	*tb32	*	*tb32	*
=0-	=0-	=0-	=0-	=0-	=0-	=0-	=0-	=0-	=0-	=0-	=0-	=0-	=0-	=0-	=0-	=0-	=0-
4r	.	4r	.	4r	.	4r	.	4r	.	(8dd\L	f	4r	.	(8d\L	f	4r	.
.	.	.	.	.	.	.	.	.	.	8ff#\J)	.	.	.	8f#\J)	.	.	.
!	!	! zu 2	!	!	!	!	!	!	!	!	!	!	!	!	!	!	!
2ryy	.	2ryy	.	2ryy	.	2ryy	.	2ryy	.	2ryy	.	2ryy	.	2ryy	.	2ryy	.
=1	=1	=1	=1	=1	=1	=1	=1	=1	=1	=1	=1	=1	=1	=1	=1	=1	=1
*^	*	*	*	*^	*	*^	*	*	*	*	*	*	*	*	*	*	*
2cc\	2a\	f	2d\	f	2gg\	2ee\	f	2cc/	2c/	f	4D\	f	4aa'\	.	4f#'/	f	4a'\	.	2d\	f
.	.	.	.	.	.	.	.	.	.	.	4r	.	4aa'\	.	4f#'/	.	4a'\	.	.	.
(4ddz\	4b-\	z	4D\	.	(4aaz\	4ff\	z	4r	4ryy	.	4r	.	(4bbz\	z	(4gz/	z	(4bz\	z	4Dz\	z
=2	=2	=2	=2	=2	=2	=2	=2	=2	=2	=2	=2	=2	=2	=2	=2	=2	=2	=2	=2	=2
4cc\)	4a\	.	2d\	.	4gg\)	4ee\	.	2.r	2.r	.	2.r	.	4aa'\)	.	4f#'/)	.	4a'\)	.	2d\	.
4r	4ryy	.	.	.	4r	4ryy	.	.	.	.	.	.	4aa'\	.	4f#'/	.	4a'\	.	.	.
4r	4ryy	.	4Dz\	z	4r	4ryy	.	.	.	.	.	.	(4gg#z\	z	(4e#z/	z	(4g#z\	z	4Dz\	z
=3	=3	=3	=3	=3	=3	=3	=3	=3	=3	=3	=3	=3	=3	=3	=3	=3	=3	=3	=3	=3
2cc\	2a\	.	2d\	.	2gg\	2ee\	.	2cc/	2c/	.	4D\	.	4aa'\)	.	4f#'/)	.	4a'\)	.	2d\	.
.	.	.	.	.	.	.	.	.	.	.	4r	.	4aa'\	.	4f#'/	.	4a'\	.	.	.
(4ddz\	4b-\	z	4Dz\	z	(4aaz\	4ff\	z	4r	4ryy	.	4r	.	(8dddz\L	z	(8bz/L	z	(8ddz\L	z	4Dz\	z
.	.	.	.	.	.	.	.	.	.	.	.	.	8bb\J)	.	8g/J)	.	8b\J)	.	.	.
=4	=4	=4	=4	=4	=4	=4	=4	=4	=4	=4	=4	=4	=4	=4	=4	=4	=4	=4	=4	=4
4cc\)	4a\	.	2d\	.	4gg\)	4ee\	.	2.r	2.r	.	2.r	.	4aa'\	.	4f#'/	.	4a'\	.	2d\	.
4r	4ryy	.	.	.	4r	4ryy	.	.	.	.	.	.	4aa'\	.	4f#'/	.	4a'\	.	.	.
4r	4ryy	.	4r	.	4r	4ryy	.	.	.	.	.	.	(8dd\L	.	4r	.	(8d\L	.	4r	.
.	.	.	.	.	.	.	.	.	.	.	.	.	8ff#\J)	.	.	.	8f#\J)	.	.	.
=5	=5	=5	=5	=5	=5	=5	=5	=5	=5	=5	=5	=5	=5	=5	=5	=5	=5	=5	=5	=5
[2.ff/	[2.ff\	.	2B\	.	4cc/	4cc\	.	4cc/	4c/	.	4D\	.	4gg'\	.	[2.d/	.	4g'\	.	2Bn\	.
.	.	.	.	.	4cc/	4cc\	.	4cc/	4c/	.	4D\	.	(4gg\	.	.	.	(4g\	.	.	.
.	.	.	4A\	.	4cc/	4cc\	.	4cc/	4c/	.	4D\	.	4ff#\)	.	.	.	4f#\)	.	4A\	.
=6	=6	=6	=6	=6	=6	=6	=6	=6	=6	=6	=6	=6	=6	=6	=6	=6	=6	=6	=6	=6
2ff/]	2.ff\]	.	2G\	.	2.cc/	2.cc\	.	4cc/	4c/	.	4D\	.	4ee'\	.	2d/]	.	4e'\	.	2G\	.
.	.	.	.	.	.	.	.	4r	4ryy	.	4r	.	4ee'\	.	.	.	4e'\	.	.	.
4bb-z/xx	.	z	4Ez\	z	.	.	.	4r	4ryy	.	4r	.	4bbz'\	z	4gz/	z	4bz'\	z	4Enz\	z
=7	=7	=7	=7	=7	=7	=7	=7	=7	=7	=7	=7	=7	=7	=7	=7	=7	=7	=7	=7	=7
2.ggT\	2.ee\	.	2.A\	.	2.ddT\	2.gT\	.	2.ddT\xx	2.gT\xx	.	32AA/LLL	.	(2.cc#t\	.	2.eT/	.	2.gT\	.	2.A\	.
.	.	.	.	.	.	.	.	.	.	.	32AA/	.	.	.	.	.	.	.	.	.
.	.	.	.	.	.	.	.	.	.	.	32AA/	.	.	.	.	.	.	.	.	.
.	.	.	.	.	.	.	.	.	.	.	32AA/	.	.	.	.	.	.	.	.	.
.	.	.	.	.	.	.	.	.	.	.	32AA/	.	.	.	.	.	.	.	.	.
.	.	.	.	.	.	.	.	.	.	.	32AA/	.	.	.	.	.	.	.	.	.
.	.	.	.	.	.	.	.	.	.	.	32AA/	.	.	.	.	.	.	.	.	.
.	.	.	.	.	.	.	.	.	.	.	32AA/	.	.	.	.	.	.	.	.	.
.	.	.	.	.	.	.	.	.	.	.	32AA/	.	.	.	.	.	.	.	.	.
.	.	.	.	.	.	.	.	.	.	.	32AA/	.	.	.	.	.	.	.	.	.
.	.	.	.	.	.	.	.	.	.	.	32AA/	.	.	.	.	.	.	.	.	.
.	.	.	.	.	.	.	.	.	.	.	32AA/	.	.	.	.	.	.	.	.	.
.	.	.	.	.	.	.	.	.	.	.	32AA/	.	.	.	.	.	.	.	.	.
.	.	.	.	.	.	.	.	.	.	.	32AA/	.	.	.	.	.	.	.	.	.
.	.	.	.	.	.	.	.	.	.	.	32AA/	.	.	.	.	.	.	.	.	.
.	.	.	.	.	.	.	.	.	.	.	32AA/	.	.	.	.	.	.	.	.	.
.	.	.	.	.	.	.	.	.	.	.	32AA/	.	.	.	.	.	.	.	.	.
.	.	.	.	.	.	.	.	.	.	.	32AA/	.	.	.	.	.	.	.	.	.
.	.	.	.	.	.	.	.	.	.	.	32AA/	.	.	.	.	.	.	.	.	.
.	.	.	.	.	.	.	.	.	.	.	32AA/	.	.	.	.	.	.	.	.	.
.	.	.	.	.	.	.	.	.	.	.	32AA/	.	.	.	.	.	.	.	.	.
.	.	.	.	.	.	.	.	.	.	.	32AA/	.	.	.	.	.	.	.	.	.
.	.	.	.	.	.	.	.	.	.	.	32AA/	.	.	.	.	.	.	.	.	.
.	.	.	.	.	.	.	.	.	.	.	32AA/JJJ	.	.	.	.	.	.	.	.	.
!	!	!	!	!	!	!	!	!	!	!	!	!	! 32bP/LLL	!	!	!	!	!	!	!
!	!	!	!	!	!	!	!	!	!	!	!	!	! 32cc#P/JJJ)	!	!	!	!	!	!	!
=8	=8	=8	=8	=8	=8	=8	=8	=8	=8	=8	=8	=8	=8	=8	=8	=8	=8	=8	=8	=8
4ff/	4ff\	.	4D\	.	4cc/	4e/	.	4cc/	4c/	.	4D\	.	4ddp\	.	4d/	.	4f#\	.	4D\	.
4r	4ryy	.	4r	.	4r	4ryy	.	4r	4ryy	.	4r	.	4r	.	4r	.	4r	.	4r	.
4r	4ryy	.	4r	.	4r	4ryy	.	4r	4ryy	.	4r	.	(8dd\L	p	4r	.	(8d\L	p	4r	.
.	.	.	.	.	.	.	.	.	.	.	.	.	8ff#\J)	.	.	.	8f#\J)	.	.	.
=9	=9	=9	=9	=9	=9	=9	=9	=9	=9	=9	=9	=9	=9	=9	=9	=9	=9	=9	=9	=9
*	*	*	*^	*	*	*	*	*	*	*	*	*	*	*	*	*	*	*	*	*
2.r	2.r	.	2.r	2.r	.	(2gg\	2ee\	p	2.r	2.r	.	2.r	.	4aa'\	.	4f#'/	p	4a'\	.	2d\	pp
.	.	.	.	.	.	.	.	.	.	.	.	.	.	4aa'\	.	4f#'/	.	4a'\	.	.	.
.	.	.	.	.	.	4aa\	4ff\	.	.	.	.	.	.	(4bb\	.	(4g/	.	(4b\	.	4D\	.
=10	=10	=10	=10	=10	=10	=10	=10	=10	=10	=10	=10	=10	=10	=10	=10	=10	=10	=10	=10	=10	=10
2.r	2.r	.	2.r	2.r	.	4gg\)	4ee\	.	2.r	2.r	.	2.r	.	4aa'\)	.	4f#'/)	.	4a'\)	.	2d\	.
.	.	.	.	.	.	4r	4ryy	.	.	.	.	.	.	4aa'\	.	4f#'/	.	4a'\	.	.	.
.	.	.	.	.	.	4r	4ryy	.	.	.	.	.	.	(4gg#\	.	(4e#/	.	(4g#\	.	4D\	.
=11	=11	=11	=11	=11	=11	=11	=11	=11	=11	=11	=11	=11	=11	=11	=11	=11	=11	=11	=11	=11	=11
2.r	2.r	.	2.r	2.r	.	(2gg\	2ee\	.	2.r	2.r	.	2.r	.	4aa'\)	.	4f#'/)	.	4a'\)	.	2d\	.
.	.	.	.	.	.	.	.	.	.	.	.	.	.	4aa'\	.	4f#'/	.	4a'\	.	.	.
.	.	.	.	.	.	4aa\	4ff\	.	.	.	.	.	.	(8ddd\L	.	(8b/L	.	(8dd\L	.	4D\	.
.	.	.	.	.	.	.	.	.	.	.	.	.	.	8bb\J)	.	8g/J)	.	8b\J)	.	.	.
=12	=12	=12	=12	=12	=12	=12	=12	=12	=12	=12	=12	=12	=12	=12	=12	=12	=12	=12	=12	=12	=12
2.r	2.r	.	2.r	2.r	.	4gg\)	4ee\	.	2.r	2.r	.	2.r	.	4aa'\	.	4f#'/	.	4a'\	.	2d\	.
.	.	.	.	.	.	4r	4ryy	.	.	.	.	.	.	4aa'\	.	4f#'/	.	4a'\	.	.	.
.	.	.	.	.	.	4r	4ryy	.	.	.	.	.	.	(8dd\L	.	4r	.	(8d\L	.	4r	.
.	.	.	.	.	.	.	.	.	.	.	.	.	.	8ff#\J)	.	.	.	8f#\J)	.	.	.
=13	=13	=13	=13	=13	=13	=13	=13	=13	=13	=13	=13	=13	=13	=13	=13	=13	=13	=13	=13	=13	=13
2.r	2.r	.	2.r	2.r	.	[2.cc/	[2.cc\	.	2.r	2.r	.	2.r	.	4gg'\	.	[2.d/	.	4g'\	.	2Bn\	.
.	.	.	.	.	.	.	.	.	.	.	.	.	.	(4gg\	.	.	.	(4g\	.	.	.
.	.	.	.	.	.	.	.	.	.	.	.	.	.	4ff#\)	.	.	.	4f#\)	.	4A\	.
=14	=14	=14	=14	=14	=14	=14	=14	=14	=14	=14	=14	=14	=14	=14	=14	=14	=14	=14	=14	=14	=14
2.r	2.r	.	2.r	2.r	.	2.cc/]	2.cc\]	.	2.r	2.r	.	2.r	.	4ee'\	.	2d/]	.	4e'\	.	2G\	.
.	.	.	.	.	.	.	.	.	.	.	.	.	.	4ee'\	.	.	.	4e'\	.	.	.
.	.	.	.	.	.	.	.	.	.	.	.	.	.	4bb'\	.	4g/	.	4b'\	.	4En\	.
=15	=15	=15	=15	=15	=15	=15	=15	=15	=15	=15	=15	=15	=15	=15	=15	=15	=15	=15	=15	=15	=15
2.r	2.r	.	2.r	2.r	.	2.dd/	2.g\	.	2.r	2.r	.	2.r	.	(2.cc#t\	.	2.eT/	.	2.gT\	.	2.A\	.
!	!	!	!	!	!	!	!	!	!	!	!	!	!	! 32bP/LLL	!	!	!	!	!	!	!
!	!	!	!	!	!	!	!	!	!	!	!	!	!	! 32cc#P/JJJ)	!	!	!	!	!	!	!
=16	=16	=16	=16	=16	=16	=16	=16	=16	=16	=16	=16	=16	=16	=16	=16	=16	=16	=16	=16	=16	=16
*v	*v	*	*	*	*	*	*	*	*	*	*	*	*	*	*	*	*	*	*	*	*
*	*	*v	*v	*	*	*	*	*	*	*	*	*	*	*	*	*	*	*	*	*
*	*	*	*	*	*	*	*v	*v	*	*	*	*	*	*	*	*	*	*	*
4r	.	4r	.	4cc/	4e\	.	4r	.	4r	.	4ddp\	.	4d/	.	4f#\	.	4D\	.
4r	.	4r	.	4r	4ryy	.	4r	.	4r	.	4r	.	4r	.	4r	.	4r	.
=!|:	=!|:	=!|:	=!|:	=!|:	=!|:	=!|:	=!|:	=!|:	=!|:	=!|:	=!|:	=!|:	=!|:	=!|:	=!|:	=!|:	=!|:	=!|:
*>B	*	*>B	*	*	*	*	*>B	*	*>B	*	*>B	*	*>B	*	*>B	*	*>B	*
*	*	*	*	*v	*v	*	*	*	*	*	*	*	*	*	*	*	*	*
*	*	*	*	*>B	*	*	*	*	*	*	*	*	*	*	*	*	*
4r	.	4r	.	4r	.	4r	.	4r	.	(8d/L	f	4r	.	4r	.	4r	.
.	.	.	.	.	.	.	.	.	.	8f#/J)	.	.	.	.	.	.	.
2ryy	.	2ryy	.	2ryy	.	2ryy	.	2ryy	.	2ryy	.	2ryy	.	2ryy	.	2ryy	.
=17	=17	=17	=17	=17	=17	=17	=17	=17	=17	=17	=17	=17	=17	=17	=17	=17	=17
*^	*	*	*	*^	*	*^	*	*	*	*	*	*	*	*	*	*	*
2aa\	2cc\	f	2d\	f	2.r	2.r	.	2ee\	2cc\	f	4D\	f	4a'/	.	2f#/	f	2d\	f	2d\	f
.	.	.	.	.	.	.	.	.	.	.	4r	.	4a'/	.	.	.	.	.	.	.
(4bb-\	(4cc#\	.	(4c#\	.	.	.	.	4dd/	4dd\	.	4r	.	(4a#/	.	(4e/	.	(4g\	.	(4c#\	.
=18	=18	=18	=18	=18	=18	=18	=18	=18	=18	=18	=18	=18	=18	=18	=18	=18	=18	=18	=18	=18
2aa\)	2dd\)	.	2d\)	.	2.r	2.r	.	2cc/	2cc\	.	2.r	.	4b'\)	.	4f#'/)	.	4f#'\)	.	4d'\)	.
.	.	.	.	.	.	.	.	.	.	.	.	.	4b'\	.	4f#'/	.	4f#'\	.	4d'\	.
(4gg\	(4cc#\	.	(4c#\	.	.	.	.	4dd/	4dd\	.	.	.	(4cc#\	.	(4a#/	.	(4e\	.	(4c#\	.
=19	=19	=19	=19	=19	=19	=19	=19	=19	=19	=19	=19	=19	=19	=19	=19	=19	=19	=19	=19	=19
2ff\)	2dd\)	.	2B\)	.	2.r	2.r	.	4ee\	4cc\	.	4D\	.	4dd'\)	.	4b'\)	.	4f#'\)	.	4Bn'\)	.
.	.	.	.	.	.	.	.	4ee/	4ee\	.	4r	.	4dd'\	.	4b'\	.	4f#'\	.	4B'\	.
4ee\	4cc#\	.	4F#\	.	.	.	.	4dd/	4dd\	.	4r	.	4ff#'\	.	4a#'/	.	4c#'\	.	4F#'\	.
=20	=20	=20	=20	=20	=20	=20	=20	=20	=20	=20	=20	=20	=20	=20	=20	=20	=20	=20	=20	=20
2ff\	2dd\	.	2BB/	.	4r	4ryy	.	2cc/	2cc\	.	2.r	.	2bb\	.	2b/ 2d/	.	2d\	.	2BBn/	.
.	.	.	.	.	4r	4ryy	.	.	.	.	.	.	.	.	.	.	.	.	.	.
!	!	!	!	!	!	!	!	!	!	!	!	!	!	!	!	!	!	!	! Vc.	!
4aa\	4ff\	.	(8B\L	.	4ee\	4cc\	f	4ee\	4cc\	.	.	.	4ddd\	.	4ff#\ 4dd\	.	(8B\L	.	8Bn\L	.
.	.	.	8d\J)	.	.	.	.	.	.	.	.	.	.	.	.	.	8d\J)	.	8d\J	.
=21	=21	=21	=21	=21	=21	=21	=21	=21	=21	=21	=21	=21	=21	=21	=21	=21	=21	=21	=21	=21
4aa\	4ff\	.	4f#\	.	4ee\	4cc\	.	4ee\	4cc\	.	2.r	.	4ddd\	.	4ff#\ 4dd\	.	4f#\	.	4f#\	.
4aa\	4ff\	.	(8B\L	.	4ee\	4cc\	.	4ee\	4cc\	.	.	.	4ddd\	.	4ff#\ 4dd\	.	(8B\L	.	8Bn\L	.
.	.	.	8d\J)	.	.	.	.	.	.	.	.	.	.	.	.	.	8d\J)	.	8d\J	.
4aa\	4ff\	.	4f#\	.	4ee\	4cc\	.	4ee\	4cc\	.	.	.	4ddd\	.	4ff#\ 4dd\	.	4f#\	.	4f#\	.
=22	=22	=22	=22	=22	=22	=22	=22	=22	=22	=22	=22	=22	=22	=22	=22	=22	=22	=22	=22	=22
2aa\	2ff\	.	(8B\L	.	4ee\	4cc\	.	4ee\	4cc\	.	2.r	.	4ddd\	.	4ff#\ 4dd\	.	(8B\L	.	8Bn\L	.
.	.	.	8d\J)	.	.	.	.	.	.	.	.	.	.	.	.	.	8d\J)	.	8d\J	.
.	.	.	4f#\	.	4ee\	4cc\	.	4ee\	4cc\	.	.	.	4ddd\	.	4ff#\ 4dd\	.	4f#\	.	4f#\	.
!	!	!	!	!	!	!	!	!	!	!	!	!	!	!	!	!	!	!	! Bassi	!
4ff\	4bn\	.	(8E\L	.	4r	4ryy	.	4dd/	4dd\	.	.	.	8ddd\L	.	8ddd\L	.	4E/	.	(8En\L	.
.	.	.	8G#\J)	.	.	.	.	.	.	.	.	.	8ccc#\J	.	8ccc#\J	.	.	.	8G#\J)	.
=23	=23	=23	=23	=23	=23	=23	=23	=23	=23	=23	=23	=23	=23	=23	=23	=23	=23	=23	=23	=23
4ff\	4bn\	.	4B\	.	2.r	2.r	.	4dd/	4dd\	.	2.r	.	8bb\L	.	8bb\L	.	4E/	.	4Bn\	.
.	.	.	.	.	.	.	.	.	.	.	.	.	8aa\	.	8aa\	.	.	.	.	.
4ff\	4b\	.	(8E\L	.	.	.	.	4dd/	4dd\	.	.	.	8gg#\	.	8gg#\	.	4E/	.	(8En\L	.
.	.	.	8G#\J)	.	.	.	.	.	.	.	.	.	8ff#\	.	8ff#\	.	.	.	8G#\J)	.
4ff\	4b\	.	4B\	.	.	.	.	4dd/	4dd\	.	.	.	8ee\	.	8ee\	.	4E/	.	4B\	.
.	.	.	.	.	.	.	.	.	.	.	.	.	8dd\J	.	8dd\J	.	.	.	.	.
=24	=24	=24	=24	=24	=24	=24	=24	=24	=24	=24	=24	=24	=24	=24	=24	=24	=24	=24	=24	=24
2.ff\	2.bn\	.	(8E\L	.	2.r	2.r	.	4dd/	4dd\	.	2.r	.	8cc#/L	.	8cc#/L	.	4E/	.	(8En\L	.
.	.	.	8G#\J)	.	.	.	.	.	.	.	.	.	8b/	.	8b/	.	.	.	8G#\J)	.
.	.	.	4B\	.	.	.	.	4dd/	4dd\	.	.	.	8a/	.	8a/	.	4E/	.	4Bn\	.
.	.	.	.	.	.	.	.	.	.	.	.	.	8g#/	.	8g#/	.	.	.	.	.
.	.	.	(8E\L	.	.	.	.	4dd/	4dd\	.	.	.	8f#/	.	8f#/	.	4G#/	.	(8E\L	.
.	.	.	8G#\J)	.	.	.	.	.	.	.	.	.	8e/J	.	8e/J	.	.	.	8G#\J)	.
=25	=25	=25	=25	=25	=25	=25	=25	=25	=25	=25	=25	=25	=25	=25	=25	=25	=25	=25	=25	=25
4ee\	4cc\	.	4A\	.	2.r	2.r	.	2.dd/	2.dd\	.	2.r	.	(8d/L	.	(8d/L	.	4A/	.	4A\	.
.	.	.	.	.	.	.	.	.	.	.	.	.	8c#/)	.	8c#/)	.	.	.	.	.
4ff\	4dd\	.	4C#/	.	.	.	.	.	.	.	.	.	8e'/	.	8e'/	.	4c#\	.	4C#/	.
.	.	.	.	.	.	.	.	.	.	.	.	.	8d'/	.	8d'/	.	.	.	.	.
4dd\	4bn\	.	4E\	.	.	.	.	.	.	.	.	.	8c#'/	.	8c#'/	.	4e\	.	4En\	.
.	.	.	.	.	.	.	.	.	.	.	.	.	8B'/J	.	8B'/J	.	.	.	.	.
=26	=26	=26	=26	=26	=26	=26	=26	=26	=26	=26	=26	=26	=26	=26	=26	=26	=26	=26	=26	=26
4cc/	4cc\	.	4AA/	.	[2.g/	[2.G/	p	2dd\	2g\	.	2.r	.	2A/	.	2A/	.	4A/	.	4AA/	.
4r	4ryy	.	4A\	.	.	.	.	.	.	.	.	.	.	.	.	.	4a\	.	4A\	.
4r	4ryy	.	4r	.	.	.	.	4r	4ryy	.	.	.	(8c#/L	p	4r	.	4r	.	4r	.
.	.	.	.	.	.	.	.	.	.	.	.	.	8e/J)	.	.	.	.	.	.	.
=27	=27	=27	=27	=27	=27	=27	=27	=27	=27	=27	=27	=27	=27	=27	=27	=27	=27	=27	=27	=27
*	*	*	*^	*	*	*	*	*	*	*	*	*	*	*	*	*	*	*	*	*
2.r	2.r	.	2.r	2.r	.	2.g/_	2.G/_	.	2.r	2.r	.	2.r	.	4gn'/	.	4e'/	p	[2.A/	p	2AA/	p
.	.	.	.	.	.	.	.	.	.	.	.	.	.	4g'/	.	4e'/	.	.	.	.	.
.	.	.	.	.	.	.	.	.	.	.	.	.	.	(4f#/	.	(4d#/	.	.	.	4r	.
=28	=28	=28	=28	=28	=28	=28	=28	=28	=28	=28	=28	=28	=28	=28	=28	=28	=28	=28	=28	=28	=28
*	*	*	*v	*v	*	*	*	*	*	*	*	*	*	*	*	*	*	*	*	*	*
2.r	2.r	.	4r	.	2.g/_	2.G/_	.	2.r	2.r	.	2.r	.	4g'/)	.	4e'/)	.	2A/]	.	4AA/	.
.	.	.	4r	.	.	.	.	.	.	.	.	.	4g'/	.	4e'/	.	.	.	4r	.
!	!	!	! 1.	!	!	!	!	!	!	!	!	!	!	!	!	!	!	!	!	!
.	.	.	(4d\	p	.	.	.	.	.	.	.	.	(4b-\	.	(4fn/	.	(4d\	.	4r	.
=29	=29	=29	=29	=29	=29	=29	=29	=29	=29	=29	=29	=29	=29	=29	=29	=29	=29	=29	=29	=29
2.r	2.r	.	4c#\)	.	2.g/_	2.G/_	.	2.r	2.r	.	2.r	.	4a'/)xx	.	4e'/)	.	4c#'\)	.	4AA/	.
.	.	.	4e'\	.	.	.	.	.	.	.	.	.	4a'/	.	4e'/	.	4c#'\	.	4r	.
.	.	.	(8fn\L	.	.	.	.	.	.	.	.	.	(4g#/	.	(4dn/	.	(8fn\L	.	4r	.
.	.	.	8d\J)	.	.	.	.	.	.	.	.	.	.	.	.	.	8d\J)	.	.	.
=30	=30	=30	=30	=30	=30	=30	=30	=30	=30	=30	=30	=30	=30	=30	=30	=30	=30	=30	=30	=30
2.r	2.r	.	4A\	.	2.g/]	2.G/]	.	2.r	2.r	.	32AA/LLL	pp	4a'/)	.	4e'/)	.	4c#'\	.	4AA/	.
.	.	.	.	.	.	.	.	.	.	.	32AA/	.	.	.	.	.	.	.	.	.
.	.	.	.	.	.	.	.	.	.	.	32AA/	.	.	.	.	.	.	.	.	.
.	.	.	.	.	.	.	.	.	.	.	32AA/	.	.	.	.	.	.	.	.	.
.	.	.	.	.	.	.	.	.	.	.	32AA/	.	.	.	.	.	.	.	.	.
.	.	.	.	.	.	.	.	.	.	.	32AA/	.	.	.	.	.	.	.	.	.
.	.	.	.	.	.	.	.	.	.	.	32AA/	.	.	.	.	.	.	.	.	.
.	.	.	.	.	.	.	.	.	.	.	32AA/	.	.	.	.	.	.	.	.	.
.	.	.	4r	.	.	.	.	.	.	.	32AA/	.	4a'/	.	4e'/	.	4c#'\	.	4r	.
.	.	.	.	.	.	.	.	.	.	.	32AA/	.	.	.	.	.	.	.	.	.
.	.	.	.	.	.	.	.	.	.	.	32AA/	.	.	.	.	.	.	.	.	.
.	.	.	.	.	.	.	.	.	.	.	32AA/	.	.	.	.	.	.	.	.	.
.	.	.	.	.	.	.	.	.	.	.	32AA/	.	.	.	.	.	.	.	.	.
.	.	.	.	.	.	.	.	.	.	.	32AA/	.	.	.	.	.	.	.	.	.
.	.	.	.	.	.	.	.	.	.	.	32AA/	.	.	.	.	.	.	.	.	.
.	.	.	.	.	.	.	.	.	.	.	32AA/	.	.	.	.	.	.	.	.	.
.	.	.	4r	.	.	.	.	.	.	.	32AA/	.	(8A/L	.	4r	.	4r	.	4r	.
.	.	.	.	.	.	.	.	.	.	.	32AA/	.	.	.	.	.	.	.	.	.
.	.	.	.	.	.	.	.	.	.	.	32AA/	.	.	.	.	.	.	.	.	.
.	.	.	.	.	.	.	.	.	.	.	32AA/	.	.	.	.	.	.	.	.	.
.	.	.	.	.	.	.	.	.	.	.	32AA/	.	8c#/J)	.	.	.	.	.	.	.
.	.	.	.	.	.	.	.	.	.	.	32AA/	.	.	.	.	.	.	.	.	.
.	.	.	.	.	.	.	.	.	.	.	32AA/	.	.	.	.	.	.	.	.	.
.	.	.	.	.	.	.	.	.	.	.	32AA/JJJ	.	.	.	.	.	.	.	.	.
=31	=31	=31	=31	=31	=31	=31	=31	=31	=31	=31	=31	=31	=31	=31	=31	=31	=31	=31	=31	=31
*	*	*	*^	*	*	*	*	*	*	*	*	*	*	*	*	*	*	*	*	*
!	!	!	!	!	!	!	!	!	!	!	!	! cresc.	!	!	!	!	!	!	!	!	!
2.r	2.r	.	2.r	2.r	.	2.r	2.r	.	2.r	2.r	.	32AA/LLL	.	(8e/L	.	2.r	.	2.r	.	2.r	.
.	.	.	.	.	.	.	.	.	.	.	.	32AA/	.	.	.	.	.	.	.	.	.
.	.	.	.	.	.	.	.	.	.	.	.	32AA/	.	.	.	.	.	.	.	.	.
.	.	.	.	.	.	.	.	.	.	.	.	32AA/	.	.	.	.	.	.	.	.	.
.	.	.	.	.	.	.	.	.	.	.	.	32AA/	.	8c#/)	.	.	.	.	.	.	.
.	.	.	.	.	.	.	.	.	.	.	.	32AA/	.	.	.	.	.	.	.	.	.
.	.	.	.	.	.	.	.	.	.	.	.	32AA/	.	.	.	.	.	.	.	.	.
.	.	.	.	.	.	.	.	.	.	.	.	32AA/	.	.	.	.	.	.	.	.	.
.	.	.	.	.	.	.	.	.	.	.	.	32AA/	.	(8e/	.	.	.	.	.	.	.
.	.	.	.	.	.	.	.	.	.	.	.	32AA/	.	.	.	.	.	.	.	.	.
.	.	.	.	.	.	.	.	.	.	.	.	32AA/	.	.	.	.	.	.	.	.	.
.	.	.	.	.	.	.	.	.	.	.	.	32AA/	.	.	.	.	.	.	.	.	.
.	.	.	.	.	.	.	.	.	.	.	.	32AA/	.	8g/J)	.	.	.	.	.	.	.
.	.	.	.	.	.	.	.	.	.	.	.	32AA/	.	.	.	.	.	.	.	.	.
.	.	.	.	.	.	.	.	.	.	.	.	32AA/	.	.	.	.	.	.	.	.	.
.	.	.	.	.	.	.	.	.	.	.	.	32AA/	.	.	.	.	.	.	.	.	.
.	.	.	.	.	.	.	.	.	.	.	.	32AA/	.	(8A/L	.	.	.	.	.	.	.
.	.	.	.	.	.	.	.	.	.	.	.	32AA/	.	.	.	.	.	.	.	.	.
.	.	.	.	.	.	.	.	.	.	.	.	32AA/	.	.	.	.	.	.	.	.	.
.	.	.	.	.	.	.	.	.	.	.	.	32AA/	.	.	.	.	.	.	.	.	.
.	.	.	.	.	.	.	.	.	.	.	.	32AA/	.	8c#/J)	.	.	.	.	.	.	.
.	.	.	.	.	.	.	.	.	.	.	.	32AA/	.	.	.	.	.	.	.	.	.
.	.	.	.	.	.	.	.	.	.	.	.	32AA/	.	.	.	.	.	.	.	.	.
.	.	.	.	.	.	.	.	.	.	.	.	32AA/JJJ	.	.	.	.	.	.	.	.	.
=32	=32	=32	=32	=32	=32	=32	=32	=32	=32	=32	=32	=32	=32	=32	=32	=32	=32	=32	=32	=32	=32
2.r	2.r	.	2.r	2.r	.	2.r	2.r	.	2.r	2.r	.	32AA/LLL	.	(8e/L	.	2.r	.	2.r	.	2.r	.
.	.	.	.	.	.	.	.	.	.	.	.	32AA/	.	.	.	.	.	.	.	.	.
.	.	.	.	.	.	.	.	.	.	.	.	32AA/	.	.	.	.	.	.	.	.	.
.	.	.	.	.	.	.	.	.	.	.	.	32AA/	.	.	.	.	.	.	.	.	.
.	.	.	.	.	.	.	.	.	.	.	.	32AA/	.	8c#/)	.	.	.	.	.	.	.
.	.	.	.	.	.	.	.	.	.	.	.	32AA/	.	.	.	.	.	.	.	.	.
.	.	.	.	.	.	.	.	.	.	.	.	32AA/	.	.	.	.	.	.	.	.	.
.	.	.	.	.	.	.	.	.	.	.	.	32AA/	.	.	.	.	.	.	.	.	.
.	.	.	.	.	.	.	.	.	.	.	.	32AA/	.	(8e/	.	.	.	.	.	.	.
.	.	.	.	.	.	.	.	.	.	.	.	32AA/	.	.	.	.	.	.	.	.	.
.	.	.	.	.	.	.	.	.	.	.	.	32AA/	.	.	.	.	.	.	.	.	.
.	.	.	.	.	.	.	.	.	.	.	.	32AA/	.	.	.	.	.	.	.	.	.
.	.	.	.	.	.	.	.	.	.	.	.	32AA/	.	8g/J)	.	.	.	.	.	.	.
.	.	.	.	.	.	.	.	.	.	.	.	32AA/	.	.	.	.	.	.	.	.	.
.	.	.	.	.	.	.	.	.	.	.	.	32AA/	.	.	.	.	.	.	.	.	.
.	.	.	.	.	.	.	.	.	.	.	.	32AA/	.	.	.	.	.	.	.	.	.
.	.	.	.	.	.	.	.	.	.	.	.	32AA/	.	(8a/L	.	.	.	.	.	.	.
.	.	.	.	.	.	.	.	.	.	.	.	32AA/	.	.	.	.	.	.	.	.	.
.	.	.	.	.	.	.	.	.	.	.	.	32AA/	.	.	.	.	.	.	.	.	.
.	.	.	.	.	.	.	.	.	.	.	.	32AA/	.	.	.	.	.	.	.	.	.
.	.	.	.	.	.	.	.	.	.	.	.	32AA/	.	8cc#/J)	.	.	.	.	.	.	.
.	.	.	.	.	.	.	.	.	.	.	.	32AA/	.	.	.	.	.	.	.	.	.
.	.	.	.	.	.	.	.	.	.	.	.	32AA/	.	.	.	.	.	.	.	.	.
.	.	.	.	.	.	.	.	.	.	.	.	32AA/JJJ	.	.	.	.	.	.	.	.	.
=33	=33	=33	=33	=33	=33	=33	=33	=33	=33	=33	=33	=33	=33	=33	=33	=33	=33	=33	=33	=33	=33
*	*	*	*v	*v	*	*	*	*	*	*	*	*	*	*	*	*	*	*	*	*	*
2.r	2.r	.	4e\ 4c#\	.	2.r	2.r	.	2.r	2.r	.	32AA/LLL	<	(8ee\L	.	4g/ 4A/	.	4e\ 4c#\	.	2.r	.
.	.	.	.	.	.	.	.	.	.	.	32AA/	.	.	.	.	.	.	.	.	.
.	.	.	.	.	.	.	.	.	.	.	32AA/	.	.	.	.	.	.	.	.	.
.	.	.	.	.	.	.	.	.	.	.	32AA/	.	.	.	.	.	.	.	.	.
.	.	.	.	.	.	.	.	.	.	.	32AA/	.	8cc#\)	.	.	.	.	.	.	.
.	.	.	.	.	.	.	.	.	.	.	32AA/	.	.	.	.	.	.	.	.	.
.	.	.	.	.	.	.	.	.	.	.	32AA/	.	.	.	.	.	.	.	.	.
.	.	.	.	.	.	.	.	.	.	.	32AA/	.	.	.	.	.	.	.	.	.
.	.	.	4r	.	.	.	.	.	.	.	32AA/	.	(8ee\	.	4r	.	4r	.	.	.
.	.	.	.	.	.	.	.	.	.	.	32AA/	.	.	.	.	.	.	.	.	.
.	.	.	.	.	.	.	.	.	.	.	32AA/	.	.	.	.	.	.	.	.	.
.	.	.	.	.	.	.	.	.	.	.	32AA/	.	.	.	.	.	.	.	.	.
.	.	.	.	.	.	.	.	.	.	.	32AA/	.	8gg\J)	.	.	.	.	.	.	.
.	.	.	.	.	.	.	.	.	.	.	32AA/	.	.	.	.	.	.	.	.	.
.	.	.	.	.	.	.	.	.	.	.	32AA/	.	.	.	.	.	.	.	.	.
.	.	.	.	.	.	.	.	.	.	.	32AA/	.	.	.	.	.	.	.	.	.
.	.	.	4r	.	.	.	.	.	.	.	32AA/	.	(8a\L	.	4r	.	4r	.	.	.
.	.	.	.	.	.	.	.	.	.	.	32AA/	.	.	.	.	.	.	.	.	.
.	.	.	.	.	.	.	.	.	.	.	32AA/	.	.	.	.	.	.	.	.	.
.	.	.	.	.	.	.	.	.	.	.	32AA/	.	.	.	.	.	.	.	.	.
.	.	.	.	.	.	.	.	.	.	.	32AA/	.	8cc#\J)	.	.	.	.	.	.	.
.	.	.	.	.	.	.	.	.	.	.	32AA/	.	.	.	.	.	.	.	.	.
.	.	.	.	.	.	.	.	.	.	.	32AA/	.	.	.	.	.	.	.	.	.
.	.	.	.	.	.	.	.	.	.	.	32AA/JJJ	.	.	.	.	.	.	.	.	.
=34	=34	=34	=34	=34	=34	=34	=34	=34	=34	=34	=34	=34	=34	=34	=34	=34	=34	=34	=34	=34
2.r	2.r	.	4e\ 4c#\	.	2.r	2.r	.	2.r	2.r	.	32AA/LLL	.	(8ee\L	.	4g/ 4A/	.	4e\ 4c#\	.	2.r	.
.	.	.	.	.	.	.	.	.	.	.	32AA/	.	.	.	.	.	.	.	.	.
.	.	.	.	.	.	.	.	.	.	.	32AA/	.	.	.	.	.	.	.	.	.
.	.	.	.	.	.	.	.	.	.	.	32AA/	.	.	.	.	.	.	.	.	.
.	.	.	.	.	.	.	.	.	.	.	32AA/	.	8cc#\)	.	.	.	.	.	.	.
.	.	.	.	.	.	.	.	.	.	.	32AA/	.	.	.	.	.	.	.	.	.
.	.	.	.	.	.	.	.	.	.	.	32AA/	.	.	.	.	.	.	.	.	.
.	.	.	.	.	.	.	.	.	.	.	32AA/	.	.	.	.	.	.	.	.	.
.	.	.	4r	.	.	.	.	.	.	.	32AA/	.	(8ee\	.	4r	.	4r	.	.	.
.	.	.	.	.	.	.	.	.	.	.	32AA/	.	.	.	.	.	.	.	.	.
.	.	.	.	.	.	.	.	.	.	.	32AA/	.	.	.	.	.	.	.	.	.
.	.	.	.	.	.	.	.	.	.	.	32AA/	.	.	.	.	.	.	.	.	.
.	.	.	.	.	.	.	.	.	.	.	32AA/	.	8gg\J)	.	.	.	.	.	.	.
.	.	.	.	.	.	.	.	.	.	.	32AA/	.	.	.	.	.	.	.	.	.
.	.	.	.	.	.	.	.	.	.	.	32AA/	.	.	.	.	.	.	.	.	.
.	.	.	.	.	.	.	.	.	.	.	32AA/	.	.	.	.	.	.	.	.	.
.	.	.	4r	.	.	.	.	.	.	.	32AA/	.	(8dd\L	f	(8f#/L	f	(8d\Lxx	f	.	.
.	.	.	.	.	.	.	.	.	.	.	32AA/	.	.	.	.	.	.	.	.	.
.	.	.	.	.	.	.	.	.	.	.	32AA/	.	.	.	.	.	.	.	.	.
.	.	.	.	.	.	.	.	.	.	.	32AA/	.	.	.	.	.	.	.	.	.
.	.	.	.	.	.	.	.	.	.	.	32AA/	.	8ff#\J)	.	8dd/J)	.	8f#\J)	.	.	.
.	.	.	.	.	.	.	.	.	.	.	32AA/	.	.	.	.	.	.	.	.	.
.	.	.	.	.	.	.	.	.	.	.	32AA/	.	.	.	.	.	.	.	.	.
.	.	.	.	.	.	.	.	.	.	.	32AA/JJJ	.	.	.	.	.	.	.	.	.
=35	=35	=35	=35	=35	=35	=35	=35	=35	=35	=35	=35	=35	=35	=35	=35	=35	=35	=35	=35	=35
!	!	!	! zu 2	!	!	!	!	!	!	!	!	!	!	!	!	!	!	!	!	!
*	*	*	*	*	*v	*v	*	*	*	*	*	*	*	*	*	*	*	*	*	*
!	!	!	!	!	! zu 2	!	!	!	!	!	!	!	!	!	!	!	!	!	!
!	!	!	!	!	!	!	!	!	!	!	!	!	!	!	!	!	!	!	!
2cc\	2a\	f	4d\	f	4cc\	f	4cc/	4c/	f	4D\	]f	(8aa\L	.	4ff#\	.	(8a\L	.	4d\	f
.	.	.	.	.	.	.	.	.	.	.	.	8ff#\)	.	.	.	8f#\)	.	.	.
.	.	.	4d\	.	4cc\	.	4cc/	4c/	.	4D\	.	(8aa\	.	(8ff#\L	.	(8a\	.	4d\	.
.	.	.	.	.	.	.	.	.	.	.	.	8ddd\)	.	8dd\)	.	8dd\)	.	.	.
(4dd\	(4b-\	.	4d\	.	4cc\	.	4cc/	4c/	.	4D\	.	(8bb\	.	(8gg\	.	(8b\	.	4d\	.
.	.	.	.	.	.	.	.	.	.	.	.	8ddd\J)	.	8dd\J)	.	8dd\J)	.	.	.
=36	=36	=36	=36	=36	=36	=36	=36	=36	=36	=36	=36	=36	=36	=36	=36	=36	=36	=36	=36
4cc\)	4a\)	.	2.d\	.	2cc\	.	2cc/	2c/	.	2D\	.	4aa'\	.	4ff#'\	.	4a'\	.	2.d\	.
4r	4ryy	.	.	.	.	.	.	.	.	.	.	4aa'\	.	4ff#'\	.	4a'\	.	.	.
4r	4ryy	.	.	.	4cc\	.	4cc/	4c/	.	4r	.	(4gg#\	.	(4ee#\	.	(4g#\	.	.	.
=37	=37	=37	=37	=37	=37	=37	=37	=37	=37	=37	=37	=37	=37	=37	=37	=37	=37	=37	=37
2cc\	2a\	.	8d\L	.	4cc\	.	4cc/	4c/	.	4D\	.	4aa'\)	.	4ff#'\)	.	4a'\)	.	8d\L	.
.	.	.	8D\	.	.	.	.	.	.	.	.	.	.	.	.	.	.	8D\	.
.	.	.	8d\	.	8cc\L	.	8cc/L	8c/L	.	8D\L	.	(8aa\L	.	(8ff#\L	.	(8a\L	.	8d\	.
.	.	.	8D\	.	8cc\	.	8cc/	8c/	.	8D\	.	8ddd\)	.	8dd\)	.	8dd\)	.	8D\	.
(4dd\	(4b-\	.	8d\	.	8cc\	.	8cc/	8c/	.	8D\	.	(8bb\	.	(8gg\	.	(8b\	.	8d\	.
.	.	.	8D\J	.	8cc\J	.	8cc/J	8c/J	.	8D\J	.	8ddd\J)	.	8dd\J)	.	8dd\J)	.	8D\J	.
=38	=38	=38	=38	=38	=38	=38	=38	=38	=38	=38	=38	=38	=38	=38	=38	=38	=38	=38	=38
4cc\)	4a\)	.	2d\	.	2cc\	.	2cc/	2c/	.	4D\	.	4aa'\	.	4ff#'\	.	4a'\	.	2d\	.
4r	4ryy	.	.	.	.	.	.	.	.	4r	.	4aa'\	.	4ff#'\	.	4a'\	.	.	.
4r	4ryy	.	(8d\L	.	4r	.	4r	4ryy	.	4r	.	(8dd\L	.	4r	.	(8d\L	.	(8d\L	.
.	.	.	8c#\J)	.	.	.	.	.	.	.	.	8ff#\J)	.	.	.	8f#\J)	.	8c#\J)	.
=39	=39	=39	=39	=39	=39	=39	=39	=39	=39	=39	=39	=39	=39	=39	=39	=39	=39	=39	=39
[2.ff\	[2.f\	.	2B\	.	[2.cc\	.	[2.cc/	[2.c/	.	4D\	.	4gg'\	.	[2.dd/ 2.d/	.	4g'\	.	2Bn\	.
.	.	.	.	.	.	.	.	.	.	4D\	.	(4gg\	.	.	.	(4g\	.	.	.
.	.	.	4A\	.	.	.	.	.	.	4D\	.	4ff#\)	.	.	.	4f#\)	.	4A\	.
=40	=40	=40	=40	=40	=40	=40	=40	=40	=40	=40	=40	=40	=40	=40	=40	=40	=40	=40	=40
4ff\]	4f\]	.	4G\	.	4cc\]	.	4cc/]	4c/]	.	4D\	.	4ee'\	.	2dd/ 2d/]	.	2.e\	.	2G\	.
4dd\	4b-\	.	4r	.	4r	.	4r	4ryy	.	4r	.	4ee'\	.	.	.	.	.	.	.
4dd\	4b-\	.	4r	.	4r	.	4r	4ryy	.	4r	.	4bbz'\	z	(8b/L	.	.	.	4En\	.
.	.	.	.	.	.	.	.	.	.	.	.	.	.	8g/J)	.	.	.	.	.
=41	=41	=41	=41	=41	=41	=41	=41	=41	=41	=41	=41	=41	=41	=41	=41	=41	=41	=41	=41
*	*	*	*^	*	*^	*	*	*	*	*	*	*	*	*	*	*	*	*	*
2.ee\	2.b-\	.	2.e\	2.c#\	.	2.dd\	2.g\	.	2.dd\	2.g\	.	4AA/	.	(2.gT/	.	2.c#/	.	(2.eT\	.	2.A\	.
.	.	.	.	.	.	.	.	.	.	.	.	4r	.	.	.	.	.	.	.	.	.
.	.	.	.	.	.	.	.	.	.	.	.	4r	.	.	.	.	.	.	.	.	.
!	!	!	!	!	!	!	!	!	!	!	!	!	!	! 32f#P/LLL	!	!	!	! 32dP/LLL	!	!	!
!	!	!	!	!	!	!	!	!	!	!	!	!	!	! 32gP/JJJ)	!	!	!	! 32eP/JJJ)	!	!	!
=42	=42	=42	=42	=42	=42	=42	=42	=42	=42	=42	=42	=42	=42	=42	=42	=42	=42	=42	=42	=42	=42
4ff\	4a\	.	4f#\	4d\	.	4ee\	4cc\	.	4ee\	4cc\	.	4D\	.	4f#p/	.	4d/	.	4dp\	.	4D\	.
4r	4ryy	.	4r	4ryy	.	4r	4ryy	.	4r	4ryy	.	4r	.	4r	.	4r	.	4r	.	4r	.
4r	4ryy	.	4r	4ryy	.	4r	4ryy	.	4r	4ryy	.	4r	.	4ddd\	.	4d/	.	4d\	.	4r	.
=43	=43	=43	=43	=43	=43	=43	=43	=43	=43	=43	=43	=43	=43	=43	=43	=43	=43	=43	=43	=43	=43
2.ff\	2.cc\	.	2.A\	2.D\	.	[2.cc/	[2.c/	.	[2.cc/	[2.c/	.	4D\	.	(2.ccnt\	.	(2.ccnt\	.	2.d/ 2.A/	.	2.F#\	.
.	.	.	.	.	.	.	.	.	.	.	.	4r	.	.	.	.	.	.	.	.	.
.	.	.	.	.	.	.	.	.	.	.	.	4r	.	.	.	.	.	.	.	.	.
!	!	!	!	!	!	!	!	!	!	!	!	!	!	! 32bP/LLL	!	! 32bP/LLL	!	!	!	!	!
!	!	!	!	!	!	!	!	!	!	!	!	!	!	! 32ccP/JJJ)	!	! 32ccP/JJJ)	!	!	!	!	!
=44	=44	=44	=44	=44	=44	=44	=44	=44	=44	=44	=44	=44	=44	=44	=44	=44	=44	=44	=44	=44	=44
4ff\	4dd\	.	4B\	4G\	.	4cc/]	4c/]	.	4cc/]	4c/]	.	4D\	.	4bp\	.	4bp\	.	4d\ 4B\	.	4G\	.
4r	4ryy	.	4r	4ryy	.	4r	4ryy	.	4r	4ryy	.	4r	.	4r	.	4r	.	4r	.	4r	.
4r	4ryy	.	4r	4ryy	.	4r	4ryy	.	4r	4ryy	.	4r	.	4ddd\	.	4bb\	.	4r	.	4r	.
=45	=45	=45	=45	=45	=45	=45	=45	=45	=45	=45	=45	=45	=45	=45	=45	=45	=45	=45	=45	=45	=45
2.r	2.r	.	2.r	2.r	.	2.r	2.r	.	2.r	2.r	.	2.r	.	2.r	.	2.r	.	2.r	.	2.r	.
=46	=46	=46	=46	=46	=46	=46	=46	=46	=46	=46	=46	=46	=46	=46	=46	=46	=46	=46	=46	=46	=46
2.r	2.r	.	2.r	2.r	.	2.r	2.r	.	2.r	2.r	.	2.r	.	2.r	.	2.r	.	2.r	.	2.r	.
!	!	!	!	! zu 2	!	!	!	!	!	!	!	!	!	!	!	!	!	!	!	!	!
=47	=47	=47	=47	=47	=47	=47	=47	=47	=47	=47	=47	=47	=47	=47	=47	=47	=47	=47	=47	=47	=47
*	*	*	*v	*v	*	*	*	*	*	*	*	*	*	*	*	*	*	*	*	*	*
2.r	2.r	.	[2.c#t\	p	2.r	2.r	.	2.r	2.r	.	2.r	.	[2.eT/	p	[2.c#t/	p	8G/L	p	8AA/L	p
.	.	.	.	.	.	.	.	.	.	.	.	.	.	.	.	.	8G/	.	8AA/	.
.	.	.	.	.	.	.	.	.	.	.	.	.	.	.	.	.	8G/	.	8AA/	.
.	.	.	.	.	.	.	.	.	.	.	.	.	.	.	.	.	8G/	.	8AA/	.
.	.	.	.	.	.	.	.	.	.	.	.	.	.	.	.	.	8G/	.	8AA/	.
.	.	.	.	.	.	.	.	.	.	.	.	.	.	.	.	.	8G/J	.	8AA/J	.
=48	=48	=48	=48	=48	=48	=48	=48	=48	=48	=48	=48	=48	=48	=48	=48	=48	=48	=48	=48	=48
2.r	2.r	.	(2.c#t\]	.	2.r	2.r	.	2.r	2.r	.	2.r	.	(2.eT/]	.	(2.c#t/]	.	8G/L	.	8AA/L	.
.	.	.	.	.	.	.	.	.	.	.	.	.	.	.	.	.	8G/	.	8AA/	.
.	.	.	.	.	.	.	.	.	.	.	.	.	.	.	.	.	8G/	.	8AA/	.
.	.	.	.	.	.	.	.	.	.	.	.	.	.	.	.	.	8G/	.	8AA/	.
.	.	.	.	.	.	.	.	.	.	.	.	.	.	.	.	.	8G/	.	8AA/	.
.	.	.	.	.	.	.	.	.	.	.	.	.	.	.	.	.	8G/J	.	8AA/J	.
!	!	!	! 32BP/LLL	!	!	!	!	!	!	!	!	!	! 32dP/LLL	!	! 32BP/LLL	!	!	!	!	!
!	!	!	! 32c#P/JJJ)	!	!	!	!	!	!	!	!	!	! 32eP/JJJ)	!	! 32c#P/JJJ)	!	!	!	!	!
=49	=49	=49	=49	=49	=49	=49	=49	=49	=49	=49	=49	=49	=49	=49	=49	=49	=49	=49	=49	=49
4ff\	4a/	f	4dp\	f	2cc/	2e/	f	2cc/	2e/	f	4D\	f	4ddp/ 4d/	f	4dp/	f	4F#/	f	4D\	f
4ff\	4a/	.	4r	.	.	.	.	.	.	.	4D\	.	4dd/ 4d/	.	4d/	.	4r	.	4r	.
(8gg\L	8b-\L	.	4A\	.	4dd\	4g\	.	4dd\	4g\	.	4AA/	.	(8ee\L	.	(8e/L	.	4cc#\ 4e\	.	4AA/	.
8aa\J)	8cc\J	.	.	.	.	.	.	.	.	.	.	.	8ff#\J)	.	8f#/J)	.	.	.	.	.
=50	=50	=50	=50	=50	=50	=50	=50	=50	=50	=50	=50	=50	=50	=50	=50	=50	=50	=50	=50	=50
4ff\	4a/	.	4d\	.	2ee\	2cc\	.	2ee\	2cc\	.	4D\	.	4dd'\	.	4d'/	.	4dd\ 4f#\	.	4D\	.
4ff\	4a/	.	4r	.	.	.	.	.	.	.	4D\	.	4dd'\	.	4d'/	.	4r	.	4r	.
4cc\	4a/	.	4A\	.	4gg\	4ee\	.	4gg\	4ee\	.	4AA/	.	(8aa\L	.	(8aa\L	.	(8a\L	.	4AA/	.
.	.	.	.	.	.	.	.	.	.	.	.	.	8ff#\J)	.	8ff#\J)	.	8f#\J)	.	.	.
=51	=51	=51	=51	=51	=51	=51	=51	=51	=51	=51	=51	=51	=51	=51	=51	=51	=51	=51	=51	=51
4ff\	4a/	.	4d\	.	2ee\	2cc\	.	2ee\	2cc\	.	4D\	.	4dd'\	.	4dd'\	.	4dd\ 4f#\	.	4D\	.
4ff\	4a/	.	4r	.	.	.	.	.	.	.	4D\	.	4dd'\	.	4dd'\	.	4r	.	4r	.
(8gg\L	8b-\L	.	4AA/	.	4dd\	4g\	.	4dd\	4g\	.	4AA/	.	4ccc#'\	.	(8ee\L	.	4cc#\ 4e\	.	4AA/	.
8aa\J)	8cc\J	.	.	.	.	.	.	.	.	.	.	.	.	.	8ff#\J)	.	.	.	.	.
=52	=52	=52	=52	=52	=52	=52	=52	=52	=52	=52	=52	=52	=52	=52	=52	=52	=52	=52	=52	=52
4ff'\	4a\	.	4D\	.	4cc/	4e/	.	4cc/	4e/	.	4D\	.	4ddd'\	.	4dd'\	.	4dd'\ 4d\	.	4D'\	.
4r	4ryy	.	4r	.	4r	4ryy	.	4r	4ryy	.	4r	.	4r	.	4r	.	4r	.	4r	.
=:!!:	=:!!:	=:!!:	=:!!:	=:!!:	=:!!:	=:!!:	=:!!:	=:!!:	=:!!:	=:!!:	=:!!:	=:!!:	=:!!:	=:!!:	=:!!:	=:!!:	=:!!:	=:!!:	=:!!:	=:!!:
*v	*v	*	*	*	*	*	*	*	*	*	*	*	*	*	*	*	*	*	*	*
*>C	*	*>C	*	*	*	*	*	*	*	*>C	*	*>C	*	*>C	*	*>C	*	*>C	*
*k[b-]	*	*k[b-e-]	*	*	*	*	*	*	*	*	*	*k[b-e-]	*	*k[b-e-]	*	*k[b-e-]	*	*k[b-e-]	*
*d:	*	*d:	*	*	*	*	*	*	*	*	*	*d:	*	*d:	*	*d:	*	*d:	*
*	*	*	*	*v	*v	*	*	*	*	*	*	*	*	*	*	*	*	*	*
*	*	*	*	*>C	*	*	*	*	*	*	*	*	*	*	*	*	*	*
*	*	*	*	*	*	*v	*v	*	*	*	*	*	*	*	*	*	*	*
*	*	*	*	*	*	*>C	*	*	*	*	*	*	*	*	*	*	*
4r	.	4r	.	4r	.	4r	.	4r	.	(4dd\	p	4r	.	4r	.	4r	.
2ryy	.	2ryy	.	2ryy	.	2ryy	.	2ryy	.	2ryy	.	2ryy	.	2ryy	.	2ryy	.
=53	=53	=53	=53	=53	=53	=53	=53	=53	=53	=53	=53	=53	=53	=53	=53	=53	=53
*^	*	*^	*	*^	*	*^	*	*	*	*	*	*	*	*	*	*	*
2.r	2.r	.	2.r	2.r	.	2.r	2.r	.	2.r	2.r	.	2.r	.	2ffn\)	.	2.r	.	2.r	.	2.r	.
.	.	.	.	.	.	.	.	.	.	.	.	.	.	(4dd\	.	.	.	.	.	.	.
=54	=54	=54	=54	=54	=54	=54	=54	=54	=54	=54	=54	=54	=54	=54	=54	=54	=54	=54	=54	=54	=54
2.r	2.r	.	2.r	2.r	.	2.r	2.r	.	2.r	2.r	.	2.r	.	2ffn\)	.	2.r	.	2.r	.	2.r	.
.	.	.	.	.	.	.	.	.	.	.	.	.	.	(8dd\L	.	.	.	.	.	.	.
.	.	.	.	.	.	.	.	.	.	.	.	.	.	8ee-\J	.	.	.	.	.	.	.
=55	=55	=55	=55	=55	=55	=55	=55	=55	=55	=55	=55	=55	=55	=55	=55	=55	=55	=55	=55	=55	=55
!	!	!	!	!	!	!	!	!	!	!	!	!	!	!	!	! pizz.	!	! pizz	!	! pizz.	!
2.r	2.r	.	2.r	2.r	.	2.r	2.r	.	2.r	2.r	.	2.r	.	8ffn\L	.	4d"/ 4B-"/	p	4fn"\	p	4B-"\	p
.	.	.	.	.	.	.	.	.	.	.	.	.	.	8gg\	.	.	.	.	.	.	.
.	.	.	.	.	.	.	.	.	.	.	.	.	.	8aa\	.	4d"/ 4B-"/	.	4f"\	.	4B-"\	.
.	.	.	.	.	.	.	.	.	.	.	.	.	.	8bb-\	.	.	.	.	.	.	.
.	.	.	.	.	.	.	.	.	.	.	.	.	.	8aa\	.	4d"/ 4B-"/	.	4f"\	.	4B-"\	.
.	.	.	.	.	.	.	.	.	.	.	.	.	.	8gg\J	.	.	.	.	.	.	.
=56	=56	=56	=56	=56	=56	=56	=56	=56	=56	=56	=56	=56	=56	=56	=56	=56	=56	=56	=56	=56	=56
2.r	2.r	.	2.r	2.r	.	2.r	2.r	.	2.r	2.r	.	2.r	.	8ffn\L	.	4e-"/ 4A"/	.	4fn"\	.	4c"\	.
.	.	.	.	.	.	.	.	.	.	.	.	.	.	8ee-\	.	.	.	.	.	.	.
.	.	.	.	.	.	.	.	.	.	.	.	.	.	8dd\	.	4r	.	4r	.	4r	.
.	.	.	.	.	.	.	.	.	.	.	.	.	.	8ccn\	.	.	.	.	.	.	.
.	.	.	.	.	.	.	.	.	.	.	.	.	.	8b-\	.	4r	.	4r	.	4r	.
.	.	.	.	.	.	.	.	.	.	.	.	.	.	8a\J)	.	.	.	.	.	.	.
=57	=57	=57	=57	=57	=57	=57	=57	=57	=57	=57	=57	=57	=57	=57	=57	=57	=57	=57	=57	=57	=57
2.r	2.r	.	2.r	2.r	.	2.r	2.r	.	2.r	2.r	.	2.r	.	(8g/L	.	4e-"/ 4An"/	.	4cn"\	.	4F"\	.
.	.	.	.	.	.	.	.	.	.	.	.	.	.	8fn/	.	.	.	.	.	.	.
.	.	.	.	.	.	.	.	.	.	.	.	.	.	8g/	.	4e-"/ 4A"/	.	4c"\	.	4F"\	.
.	.	.	.	.	.	.	.	.	.	.	.	.	.	8a/	.	.	.	.	.	.	.
.	.	.	.	.	.	.	.	.	.	.	.	.	.	8b-/	.	4e-"/ 4A"/	.	4c"\	.	4F"\	.
.	.	.	.	.	.	.	.	.	.	.	.	.	.	8ccn/J)	.	.	.	.	.	.	.
=58	=58	=58	=58	=58	=58	=58	=58	=58	=58	=58	=58	=58	=58	=58	=58	=58	=58	=58	=58	=58	=58
*	*	*	*v	*v	*	*	*	*	*	*	*	*	*	*	*	*	*	*	*	*	*
2.r	2.r	.	4r	.	2.r	2.r	.	2.r	2.r	.	2.r	.	(8dd\L	.	4dn"/ 4B-"/	.	4B-"/	.	4B-"\	.
.	.	.	.	.	.	.	.	.	.	.	.	.	8ee-\	.	.	.	.	.	.	.
.	.	.	4r	.	.	.	.	.	.	.	.	.	8dd\	.	4r	.	4r	.	4r	.
.	.	.	.	.	.	.	.	.	.	.	.	.	8ccn\	.	.	.	.	.	.	.
!	!	!	! 1.	!	!	!	!	!	!	!	!	!	!	!	!	!	!	!	!	!
.	.	.	(8B-\L	p	.	.	.	.	.	.	.	.	8b-\	.	4e-"/ 4An"/	.	4cn"\	.	4F"\	.
.	.	.	8cn\J)	.	.	.	.	.	.	.	.	.	8cc\J)	.	.	.	.	.	.	.
=59	=59	=59	=59	=59	=59	=59	=59	=59	=59	=59	=59	=59	=59	=59	=59	=59	=59	=59	=59	=59
2.r	2.r	.	(8d\L	.	2.r	2.r	.	2.r	2.r	.	2.r	.	(8dd\L	.	4d"/ 4B-"/	.	4B-"/	.	4B-"\	.
.	.	.	8e-\	.	.	.	.	.	.	.	.	.	8ee-\	.	.	.	.	.	.	.
.	.	.	8d\	.	.	.	.	.	.	.	.	.	8dd\	.	4r	.	4r	.	4r	.
.	.	.	8cn\	.	.	.	.	.	.	.	.	.	8ccn\	.	.	.	.	.	.	.
.	.	.	8B-\	.	.	.	.	.	.	.	.	.	8b-\	.	4e-"/ 4An"/	.	4cn"\	.	4F"\	.
.	.	.	8c\J)	.	.	.	.	.	.	.	.	.	8cc\J)	.	.	.	.	.	.	.
=60	=60	=60	=60	=60	=60	=60	=60	=60	=60	=60	=60	=60	=60	=60	=60	=60	=60	=60	=60	=60
2.r	2.r	.	(8d\L	.	2.r	2.r	.	2.r	2.r	.	2.r	.	(8dd\L	.	4dn"/ 4B-"/	.	4B-"/	.	4B-"\	.
.	.	.	8e-\	.	.	.	.	.	.	.	.	.	8ee-\	.	.	.	.	.	.	.
.	.	.	8d\	.	.	.	.	.	.	.	.	.	8dd\	.	4r	.	4r	.	4r	.
.	.	.	8cn\	.	.	.	.	.	.	.	.	.	8ccn\	.	.	.	.	.	.	.
.	.	.	8B-\	.	.	.	.	.	.	.	.	.	8b-\	.	4e-"/ 4An"/	.	4cn"\	.	4F"\	.
.	.	.	8c\J)	.	.	.	.	.	.	.	.	.	8cc\J)	.	.	.	.	.	.	.
=61	=61	=61	=61	=61	=61	=61	=61	=61	=61	=61	=61	=61	=61	=61	=61	=61	=61	=61	=61	=61
2.r	2.r	.	(8d\L	.	2.r	2.r	.	2.r	2.r	.	2.r	.	(8dd\L	.	4dn"/ 4B-"/	.	4B-"/	.	4B-"\	.
.	.	.	8e-\	.	.	.	.	.	.	.	.	.	8ee-\	.	.	.	.	.	.	.
.	.	.	8d\	.	.	.	.	.	.	.	.	.	8dd\	.	4r	.	4r	.	4r	.
.	.	.	8cn\	.	.	.	.	.	.	.	.	.	8ccn\	.	.	.	.	.	.	.
.	.	.	8B-\	.	.	.	.	.	.	.	.	.	8b-\	.	4a"/ 4d"/	.	4cn"\	.	4F#"\	.
.	.	.	8A\J)	.	.	.	.	.	.	.	.	.	8a\J)	.	.	.	.	.	.	.
=62	=62	=62	=62	=62	=62	=62	=62	=62	=62	=62	=62	=62	=62	=62	=62	=62	=62	=62	=62	=62
2.r	2.r	.	(8B-\L	.	2.r	2.r	.	2.r	2.r	.	2.r	.	(8b-/L	.	4b-"/ 4d"/	.	4B-"/	.	4G"\	.
.	.	.	8cn\	.	.	.	.	.	.	.	.	.	8ccn/	.	.	.	.	.	.	.
.	.	.	8B-\	.	.	.	.	.	.	.	.	.	8b-/	.	4r	.	4r	.	4r	.
.	.	.	8A\	.	.	.	.	.	.	.	.	.	8a/	.	.	.	.	.	.	.
.	.	.	8G\	.	.	.	.	.	.	.	.	.	8g/	.	4d"/ 4G"/	.	4B-"/	.	4BB-"/	.
.	.	.	8Fn\J)	.	.	.	.	.	.	.	.	.	8fn/J)	.	.	.	.	.	.	.
=63	=63	=63	=63	=63	=63	=63	=63	=63	=63	=63	=63	=63	=63	=63	=63	=63	=63	=63	=63	=63
2.r	2.r	.	(8E\L	.	2.r	2.r	.	2.r	2.r	.	2.r	.	(8e/L	.	4e"/ 4G"/	.	4B-"/	.	4C"/	.
.	.	.	8G\	.	.	.	.	.	.	.	.	.	8g/	.	.	.	.	.	.	.
.	.	.	8cn\	.	.	.	.	.	.	.	.	.	8ccn/	.	4r	.	4r	.	4r	.
.	.	.	8B-\	.	.	.	.	.	.	.	.	.	8b-/	.	.	.	.	.	.	.
.	.	.	8A\	.	.	.	.	.	.	.	.	.	8a/	.	4e"/ 4G"/	.	4B-"/	.	4C"/	.
.	.	.	8G\J)	.	.	.	.	.	.	.	.	.	8g/J)	.	.	.	.	.	.	.
=64	=64	=64	=64	=64	=64	=64	=64	=64	=64	=64	=64	=64	=64	=64	=64	=64	=64	=64	=64	=64
*v	*v	*	*	*	*	*	*	*	*	*	*	*	*	*	*	*	*	*	*	*
*	*	*	*	*v	*v	*	*	*	*	*	*	*	*	*	*	*	*	*	*
*	*	*	*	*	*	*v	*v	*	*	*	*	*	*	*	*	*	*	*
4r	.	4Fn\	.	4r	.	4r	.	4r	.	4fn/	.	4f"/ 4An"/	.	4A"/	.	4F"\	.
4r	.	4r	.	4r	.	4r	.	4r	.	4r	.	4r	.	4r	.	4r	.
=:!!:	=:!!:	=:!!:	=:!!:	=:!!:	=:!!:	=:!!:	=:!!:	=:!!:	=:!!:	=:!!:	=:!!:	=:!!:	=:!!:	=:!!:	=:!!:	=:!!:	=:!!:
*>D	*	*>D	*	*>D	*	*>D	*	*>D	*	*>D	*	*>D	*	*>D	*	*>D	*
4r	.	(8d\L	.	4r	.	4r	.	4r	.	(8d/L	.	4r	.	4r	.	4r	.
.	.	8e-\J)	.	.	.	.	.	.	.	8e-/J)	.	.	.	.	.	.	.
2ryy	.	2ryy	.	2ryy	.	2ryy	.	2ryy	.	2ryy	.	2ryy	.	2ryy	.	2ryy	.
=65	=65	=65	=65	=65	=65	=65	=65	=65	=65	=65	=65	=65	=65	=65	=65	=65	=65
*^	*	*	*	*^	*	*^	*	*	*	*	*	*	*	*	*	*	*
2.r	2.r	.	(8fn\L	.	2.r	2.r	.	2.r	2.r	.	2.r	.	(8fn/L	.	4r	.	2.r	.	2.r	.
.	.	.	8e-\	.	.	.	.	.	.	.	.	.	8e-/	.	.	.	.	.	.	.
.	.	.	8d\	.	.	.	.	.	.	.	.	.	8d/	.	4r	.	.	.	.	.
.	.	.	8cn\	.	.	.	.	.	.	.	.	.	8cn/	.	.	.	.	.	.	.
!	!	!	!	!	!	!	!	!	!	!	!	!	!	!	! arco	!	!	!	!	!
.	.	.	8B\	.	.	.	.	.	.	.	.	.	8B/	.	(4d/	.	.	.	.	.
.	.	.	8A-\J)	.	.	.	.	.	.	.	.	.	8A-/J)	.	.	.	.	.	.	.
=66	=66	=66	=66	=66	=66	=66	=66	=66	=66	=66	=66	=66	=66	=66	=66	=66	=66	=66	=66	=66
2.r	2.r	.	(8G\L	.	2.r	2.r	.	2.r	2.r	.	2.r	.	(8G/L	.	2fn/)	.	2.r	.	2.r	.
.	.	.	8B\	.	.	.	.	.	.	.	.	.	8B/	.	.	.	.	.	.	.
.	.	.	8d\	.	.	.	.	.	.	.	.	.	8d/	.	.	.	.	.	.	.
.	.	.	8fn\	.	.	.	.	.	.	.	.	.	8fn/	.	.	.	.	.	.	.
.	.	.	8e-\	.	.	.	.	.	.	.	.	.	8e-/	.	(4B/	.	.	.	.	.
.	.	.	8d\J)	.	.	.	.	.	.	.	.	.	8d/J)	.	.	.	.	.	.	.
=67	=67	=67	=67	=67	=67	=67	=67	=67	=67	=67	=67	=67	=67	=67	=67	=67	=67	=67	=67	=67
2.r	2.r	.	4cn\	.	2.r	2.r	.	2.r	2.r	.	2.r	.	(8cn/L	.	4cn/)	.	2.r	.	2.r	.
.	.	.	.	.	.	.	.	.	.	.	.	.	8e-/	.	.	.	.	.	.	.
.	.	.	4r	.	.	.	.	.	.	.	.	.	8g/	.	4r	.	.	.	.	.
.	.	.	.	.	.	.	.	.	.	.	.	.	8ccn/	.	.	.	.	.	.	.
.	.	.	4r	.	.	.	.	.	.	.	.	.	8ee-/	.	4r	.	.	.	.	.
.	.	.	.	.	.	.	.	.	.	.	.	.	8dd/J)	.	.	.	.	.	.	.
=68	=68	=68	=68	=68	=68	=68	=68	=68	=68	=68	=68	=68	=68	=68	=68	=68	=68	=68	=68	=68
*	*	*	*^	*	*	*	*	*	*	*	*	*	*	*	*	*	*	*	*	*
2.r	2.r	.	2.r	2.r	.	2.r	2.r	.	2.r	2.r	.	2.r	.	(8ccn\L	.	2.r	.	2.r	.	2.r	.
.	.	.	.	.	.	.	.	.	.	.	.	.	.	8dd\	.	.	.	.	.	.	.
.	.	.	.	.	.	.	.	.	.	.	.	.	.	8cc\	.	.	.	.	.	.	.
.	.	.	.	.	.	.	.	.	.	.	.	.	.	8b-\	.	.	.	.	.	.	.
.	.	.	.	.	.	.	.	.	.	.	.	.	.	8a\	.	.	.	.	.	.	.
.	.	.	.	.	.	.	.	.	.	.	.	.	.	8g\J)	.	.	.	.	.	.	.
=69	=69	=69	=69	=69	=69	=69	=69	=69	=69	=69	=69	=69	=69	=69	=69	=69	=69	=69	=69	=69	=69
2.r	2.r	.	2.r	2.r	.	2.r	2.r	.	2.r	2.r	.	2.r	.	(8f#/L	.	2.r	.	2.r	.	2.r	.
.	.	.	.	.	.	.	.	.	.	.	.	.	.	8g/	.	.	.	.	.	.	.
.	.	.	.	.	.	.	.	.	.	.	.	.	.	8a/	.	.	.	.	.	.	.
.	.	.	.	.	.	.	.	.	.	.	.	.	.	8d/	.	.	.	.	.	.	.
.	.	.	.	.	.	.	.	.	.	.	.	.	.	8e/	.	.	.	.	.	.	.
.	.	.	.	.	.	.	.	.	.	.	.	.	.	8f#/J)	.	.	.	.	.	.	.
=70	=70	=70	=70	=70	=70	=70	=70	=70	=70	=70	=70	=70	=70	=70	=70	=70	=70	=70	=70	=70	=70
2.r	2.r	.	2.r	2.r	.	2.r	2.r	.	2.r	2.r	.	2.r	.	(8g\L	.	2.r	.	2.r	.	2.r	.
.	.	.	.	.	.	.	.	.	.	.	.	.	.	8a\	.	.	.	.	.	.	.
.	.	.	.	.	.	.	.	.	.	.	.	.	.	8b-\	.	.	.	.	.	.	.
.	.	.	.	.	.	.	.	.	.	.	.	.	.	8ccn\	.	.	.	.	.	.	.
.	.	.	.	.	.	.	.	.	.	.	.	.	.	8dd\	.	.	.	.	.	.	.
.	.	.	.	.	.	.	.	.	.	.	.	.	.	8ee-\J)	.	.	.	.	.	.	.
=71	=71	=71	=71	=71	=71	=71	=71	=71	=71	=71	=71	=71	=71	=71	=71	=71	=71	=71	=71	=71	=71
*	*	*	*v	*v	*	*	*	*	*	*	*	*	*	*	*	*	*	*	*	*	*
2.r	2.r	.	4r	.	2.r	2.r	.	2.r	2.r	.	2.r	.	(8ccn/L	.	4r	.	4r	.	4r	.
.	.	.	.	.	.	.	.	.	.	.	.	.	8b-/	.	.	.	.	.	.	.
.	.	.	4r	.	.	.	.	.	.	.	.	.	8cc/	.	4r	.	4r	.	4r	.
.	.	.	.	.	.	.	.	.	.	.	.	.	8a/	.	.	.	.	.	.	.
!	!	!	! 1.	!	!	!	!	!	!	!	!	!	!	!	!	!	! arco	!	! arco	!
.	.	.	(4d\	.	.	.	.	.	.	.	.	.	8dd/	.	4ccn\	.	4d\	.	4D\	.
.	.	.	.	.	.	.	.	.	.	.	.	.	8d/J)	.	.	.	.	.	.	.
=72	=72	=72	=72	=72	=72	=72	=72	=72	=72	=72	=72	=72	=72	=72	=72	=72	=72	=72	=72	=72
2.r	2.r	.	2fn\)	.	2.r	2.r	.	2.r	2.r	.	2.r	.	4g/	.	(8b\L	.	(8d\L	.	[2.GG/	.
.	.	.	.	.	.	.	.	.	.	.	.	.	.	.	8ccn\	.	8e-\	.	.	.
.	.	.	.	.	.	.	.	.	.	.	.	.	4r	.	8dd\	.	8fn\	.	.	.
.	.	.	.	.	.	.	.	.	.	.	.	.	.	.	8ee-\	.	8g\	.	.	.
.	.	.	(4d\	.	.	.	.	.	.	.	.	.	(4ffn\	.	8ffn\	.	8a-\	.	.	.
.	.	.	.	.	.	.	.	.	.	.	.	.	.	.	8dd\J)	.	8f\J)	.	.	.
=73	=73	=73	=73	=73	=73	=73	=73	=73	=73	=73	=73	=73	=73	=73	=73	=73	=73	=73	=73	=73
2.r	2.r	.	2fn\)	.	2.r	2.r	.	2.r	2.r	.	2.r	.	2aa-\)	.	(8b\L	.	(8d\L	.	2.GG/_	.
.	.	.	.	.	.	.	.	.	.	.	.	.	.	.	8ccn\	.	8e-\	.	.	.
.	.	.	.	.	.	.	.	.	.	.	.	.	.	.	8dd\	.	8fn\	.	.	.
.	.	.	.	.	.	.	.	.	.	.	.	.	.	.	8ee-\	.	8g\	.	.	.
.	.	.	(4d\	.	.	.	.	.	.	.	.	.	(4ffn\	.	8ffn\	.	8a-\	.	.	.
.	.	.	.	.	.	.	.	.	.	.	.	.	.	.	8dd\J)	.	8f\J)	.	.	.
=74	=74	=74	=74	=74	=74	=74	=74	=74	=74	=74	=74	=74	=74	=74	=74	=74	=74	=74	=74	=74
2.r	2.r	.	2fn\)	.	2.r	2.r	.	2.r	2.r	.	2.r	.	2aa-\)	.	(8b\L	.	(8d\L	.	2GG/]	.
.	.	.	.	.	.	.	.	.	.	.	.	.	.	.	8ccn\	.	8e-\	.	.	.
.	.	.	.	.	.	.	.	.	.	.	.	.	.	.	8dd\	.	8fn\	.	.	.
.	.	.	.	.	.	.	.	.	.	.	.	.	.	.	8ee-\	.	8g\	.	.	.
.	.	.	4B\	.	.	.	.	.	.	.	.	.	(8gg\L	.	8ffn\	.	8a-\	.	4Bn\xx	.
.	.	.	.	.	.	.	.	.	.	.	.	.	8ffn\J)	.	8dd\J)	.	8B\J)	.	.	.
=75	=75	=75	=75	=75	=75	=75	=75	=75	=75	=75	=75	=75	=75	=75	=75	=75	=75	=75	=75	=75
2.r	2.r	.	(8cn\L	.	2.r	2.r	.	2.r	2.r	.	2.r	.	(8ee-\L	.	4ee-\	.	4cn\	.	(4c\	.
.	.	.	8d\	.	.	.	.	.	.	.	.	.	8dd\	.	.	.	.	.	.	.
.	.	.	8e-\)	.	.	.	.	.	.	.	.	.	8ccn\)	.	4r	.	4r	.	4e-\)	.
.	.	.	(8g\	.	.	.	.	.	.	.	.	.	(8gg\	.	.	.	.	.	.	.
.	.	.	8fn\	.	.	.	.	.	.	.	.	.	8ffn\	.	4cn/	.	4r	.	4A\	.
.	.	.	8e-\J	.	.	.	.	.	.	.	.	.	8ee-\J	.	.	.	.	.	.	.
=76	=76	=76	=76	=76	=76	=76	=76	=76	=76	=76	=76	=76	=76	=76	=76	=76	=76	=76	=76	=76
2.r	2.r	.	8d\L	.	2.r	2.r	.	2.r	2.r	.	2.r	.	8dd\L	.	(4d/	.	2.r	.	(4B-\	.
.	.	.	8cn\	.	.	.	.	.	.	.	.	.	8ccn\	.	.	.	.	.	.	.
.	.	.	8B-\)	.	.	.	.	.	.	.	.	.	8b-\)	.	4fn/	.	.	.	4d\	.
.	.	.	(8fn\	.	.	.	.	.	.	.	.	.	(8ffn\	.	.	.	.	.	.	.
.	.	.	8e-\	.	.	.	.	.	.	.	.	.	8ee-\	.	4B-/)	.	.	.	4D\)	.
.	.	.	8d\J	.	.	.	.	.	.	.	.	.	8dd\J	.	.	.	.	.	.	.
=77	=77	=77	=77	=77	=77	=77	=77	=77	=77	=77	=77	=77	=77	=77	=77	=77	=77	=77	=77	=77
2.r	2.r	.	8cn\L	.	2.r	2.r	.	2.r	2.r	.	2.r	.	8ccn\L	.	2G/	.	2.r	.	2E-\	.
.	.	.	8d\	.	.	.	.	.	.	.	.	.	8dd\	.	.	.	.	.	.	.
.	.	.	8c\	.	.	.	.	.	.	.	.	.	8cc\	.	.	.	.	.	.	.
.	.	.	8B-\	.	.	.	.	.	.	.	.	.	8b-\	.	.	.	.	.	.	.
.	.	.	8A\	.	.	.	.	.	.	.	.	.	8a\	.	4B-/	.	.	.	4En\	.
.	.	.	8G\J)	.	.	.	.	.	.	.	.	.	8g\J)	.	.	.	.	.	.	.
=78	=78	=78	=78	=78	=78	=78	=78	=78	=78	=78	=78	=78	=78	=78	=78	=78	=78	=78	=78	=78
2.r	2.r	.	(8Fn\L	.	2.r	2.r	.	2.r	2.r	.	2.r	.	(8fn\L	.	4A/	.	2.r	.	4F\	.
.	.	.	8A\	.	.	.	.	.	.	.	.	.	8a\	.	.	.	.	.	.	.
.	.	.	8B-\	.	.	.	.	.	.	.	.	.	8b-\	.	4r	.	.	.	4r	.
.	.	.	8cn\	.	.	.	.	.	.	.	.	.	8ccn\	.	.	.	.	.	.	.
.	.	.	8d\	.	.	.	.	.	.	.	.	.	8dd\	.	4r	.	.	.	4r	.
.	.	.	8e-\J)	.	.	.	.	.	.	.	.	.	8ee-\J)	.	.	.	.	.	.	.
=79	=79	=79	=79	=79	=79	=79	=79	=79	=79	=79	=79	=79	=79	=79	=79	=79	=79	=79	=79	=79
*	*	*	*^	*	*	*	*	*	*	*	*	*	*	*	*	*	*	*	*	*
2.r	2.r	.	2fn\	2d\	p	2.r	2.r	.	2.r	2.r	.	2.r	.	2ffn\	.	2.r	.	2.r	.	2.r	.
.	.	.	(4d\	(4B-\	.	.	.	.	.	.	.	.	.	(4dd\	.	.	.	.	.	.	.
=80	=80	=80	=80	=80	=80	=80	=80	=80	=80	=80	=80	=80	=80	=80	=80	=80	=80	=80	=80	=80	=80
2.r	2.r	.	2fn\)	2d\)	.	2.r	2.r	.	2.r	2.r	.	2.r	.	2ffn\)	.	2.r	.	2.r	.	2.r	.
.	.	.	(8d\L	8B-\L	.	.	.	.	.	.	.	.	.	(8dd\L	.	.	.	.	.	.	.
.	.	.	8e-\J	8cn\J	.	.	.	.	.	.	.	.	.	8ee-\J	.	.	.	.	.	.	.
=81	=81	=81	=81	=81	=81	=81	=81	=81	=81	=81	=81	=81	=81	=81	=81	=81	=81	=81	=81	=81	=81
!	!	!	!	!	!	!	!	!	!	!	!	!	!	!	!	! pizz.	!	! pizz.	!	! pizz.	!
2.r	2.r	.	4fn\)	4d\	.	2.r	2.r	.	2.r	2.r	.	2.r	.	8ffn\L	.	4dn"/ 4B-"/	p	4fn"\	p	4BB-"/	p
.	.	.	.	.	.	.	.	.	.	.	.	.	.	8gg\	.	.	.	.	.	.	.
.	.	.	4d\	4B-\	.	.	.	.	.	.	.	.	.	8aa\	.	4d"/ 4B-"/	.	4f"\	.	4BB-"/	.
.	.	.	.	.	.	.	.	.	.	.	.	.	.	8bb-\	.	.	.	.	.	.	.
.	.	.	4d\	4B-\	.	.	.	.	.	.	.	.	.	8aa\	.	4d"/ 4B-"/	.	4f"\	.	4BB-"/	.
.	.	.	.	.	.	.	.	.	.	.	.	.	.	8gg\J	.	.	.	.	.	.	.
=82	=82	=82	=82	=82	=82	=82	=82	=82	=82	=82	=82	=82	=82	=82	=82	=82	=82	=82	=82	=82	=82
2.r	2.r	.	4e-\	4cn\	.	2.r	2.r	.	2.r	2.r	.	2.r	.	8ffn\L	.	4e-"/ 4An"/	.	4fn"\	.	4C"/	.
.	.	.	.	.	.	.	.	.	.	.	.	.	.	8ee-\	.	.	.	.	.	.	.
.	.	.	4r	4ryy	.	.	.	.	.	.	.	.	.	8dd\	.	4r	.	4r	.	4r	.
.	.	.	.	.	.	.	.	.	.	.	.	.	.	8ccn\	.	.	.	.	.	.	.
.	.	.	4r	4ryy	.	.	.	.	.	.	.	.	.	8b-\	.	4r	.	4r	.	4r	.
.	.	.	.	.	.	.	.	.	.	.	.	.	.	8a\J)	.	.	.	.	.	.	.
=83	=83	=83	=83	=83	=83	=83	=83	=83	=83	=83	=83	=83	=83	=83	=83	=83	=83	=83	=83	=83	=83
2.r	2.r	.	4cn\	4Fn\	.	2.r	2.r	.	2.r	2.r	.	2.r	.	(8g/L	.	4e-"/ 4A"/	.	4cn"\	.	4F"\	.
.	.	.	.	.	.	.	.	.	.	.	.	.	.	8fn/	.	.	.	.	.	.	.
.	.	.	4c\	4F\	.	.	.	.	.	.	.	.	.	8g/	.	4e-"/ 4A"/	.	4c"\	.	4F"\	.
.	.	.	.	.	.	.	.	.	.	.	.	.	.	8a/	.	.	.	.	.	.	.
.	.	.	4c\	4F\	.	.	.	.	.	.	.	.	.	8b-/	.	4e-"/ 4A"/	.	4c"\	.	4F"\	.
.	.	.	.	.	.	.	.	.	.	.	.	.	.	8ccn/J)	.	.	.	.	.	.	.
=84	=84	=84	=84	=84	=84	=84	=84	=84	=84	=84	=84	=84	=84	=84	=84	=84	=84	=84	=84	=84	=84
2.r	2.r	.	4d\	4B-\	.	2.r	2.r	.	2.r	2.r	.	2.r	.	(8dd\L	.	4d"/ 4B-"/	.	4B-"/	.	4BB-"/	.
.	.	.	.	.	.	.	.	.	.	.	.	.	.	8ee-\	.	.	.	.	.	.	.
.	.	.	4r	4ryy	.	.	.	.	.	.	.	.	.	8dd\	.	4r	.	4r	.	4r	.
.	.	.	.	.	.	.	.	.	.	.	.	.	.	8ccn\	.	.	.	.	.	.	.
.	.	.	4r	4ryy	.	.	.	.	.	.	.	.	.	8b-\	.	4r	.	4r	.	4r	.
.	.	.	.	.	.	.	.	.	.	.	.	.	.	8dd\J)	.	.	.	.	.	.	.
=85	=85	=85	=85	=85	=85	=85	=85	=85	=85	=85	=85	=85	=85	=85	=85	=85	=85	=85	=85	=85	=85
2.r	2.r	.	2.r	2.r	.	2.r	2.r	.	2.r	2.r	.	2.r	.	(8ee-\L	.	4e-"/ 4cn"/	.	4B-"/	.	4BB-"/	.
.	.	.	.	.	.	.	.	.	.	.	.	.	.	8ffn\	.	.	.	.	.	.	.
.	.	.	.	.	.	.	.	.	.	.	.	.	.	8ee-\	.	4r	.	4r	.	4r	.
.	.	.	.	.	.	.	.	.	.	.	.	.	.	8dd\	.	.	.	.	.	.	.
.	.	.	.	.	.	.	.	.	.	.	.	.	.	8ccn\	.	4r	.	4r	.	4r	.
.	.	.	.	.	.	.	.	.	.	.	.	.	.	8ee-\J)	.	.	.	.	.	.	.
=86	=86	=86	=86	=86	=86	=86	=86	=86	=86	=86	=86	=86	=86	=86	=86	=86	=86	=86	=86	=86	=86
2.r	2.r	.	2.r	2.r	.	2.r	2.r	.	2.r	2.r	.	2.r	.	(8ffn\L	.	4f"/ 4dn"/	.	4B-"/	.	4BB-"/	.
.	.	.	.	.	.	.	.	.	.	.	.	.	.	8gg\	.	.	.	.	.	.	.
.	.	.	.	.	.	.	.	.	.	.	.	.	.	8ff\	.	4r	.	4r	.	4r	.
.	.	.	.	.	.	.	.	.	.	.	.	.	.	8ee-\	.	.	.	.	.	.	.
.	.	.	.	.	.	.	.	.	.	.	.	.	.	8dd\	.	4r	.	4r	.	4r	.
.	.	.	.	.	.	.	.	.	.	.	.	.	.	8ff\J)	.	.	.	.	.	.	.
=87	=87	=87	=87	=87	=87	=87	=87	=87	=87	=87	=87	=87	=87	=87	=87	=87	=87	=87	=87	=87	=87
2.r	2.r	.	2.r	2.r	.	2.r	2.r	.	2.r	2.r	.	2.r	.	4gg\	.	4gn"/ 4B-"/	.	4e-"\	.	4E-"\	.
.	.	.	.	.	.	.	.	.	.	.	.	.	.	4r	.	4r	.	4r	.	4r	.
.	.	.	.	.	.	.	.	.	.	.	.	.	.	4r	.	4r	.	4r	.	4r	.
=88	=88	=88	=88	=88	=88	=88	=88	=88	=88	=88	=88	=88	=88	=88	=88	=88	=88	=88	=88	=88	=88
2.r	2.r	.	2.r	2.r	.	2.r	2.r	.	2.r	2.r	.	2.r	.	4r	.	4r	.	2.r	.	2.r	.
.	.	.	.	.	.	.	.	.	.	.	.	.	.	4r	.	4r	.	.	.	.	.
!	!	!	!	!	!	!	!	!	!	!	!	!	!	!	!	! arco	!	!	!	!	!
.	.	.	.	.	.	.	.	.	.	.	.	.	.	(4ff#\	.	(4f#/	.	.	.	.	.
=89	=89	=89	=89	=89	=89	=89	=89	=89	=89	=89	=89	=89	=89	=89	=89	=89	=89	=89	=89	=89	=89
2.r	2.r	.	2.r	2.r	.	2.r	2.r	.	2.r	2.r	.	2.r	.	2aa\)	.	2a/)	.	2.r	.	2.r	.
.	.	.	.	.	.	.	.	.	.	.	.	.	.	(4gg\	.	(4g/	.	.	.	.	.
=90	=90	=90	=90	=90	=90	=90	=90	=90	=90	=90	=90	=90	=90	=90	=90	=90	=90	=90	=90	=90	=90
2.r	2.r	.	2.r	2.r	.	2.r	2.r	.	2.r	2.r	.	2.r	.	2bb-\)	.	2b-/)	.	4r	.	2.r	.
.	.	.	.	.	.	.	.	.	.	.	.	.	.	.	.	.	.	4r	.	.	.
!	!	!	!	!	!	!	!	!	!	!	!	!	!	!	!	!	!	! arco	!	!	!
.	.	.	.	.	.	.	.	.	.	.	.	.	.	4gg\	.	4G/	.	(4G/	.	.	.
=91	=91	=91	=91	=91	=91	=91	=91	=91	=91	=91	=91	=91	=91	=91	=91	=91	=91	=91	=91	=91	=91
!	!	!	!	!	!	!	!	!	!	!	!	!	!	!	!	!	!	!	!	! arco	!
2.r	2.r	.	2.r	2.r	.	2.r	2.r	.	2.r	2.r	.	2.r	.	(4ee-\	.	2.B/	.	2.B/	.	[2.E-\	.
.	.	.	.	.	.	.	.	.	.	.	.	.	.	4ffn\	.	.	.	.	.	.	.
.	.	.	.	.	.	.	.	.	.	.	.	.	.	4dd\)	.	.	.	.	.	.	.
=92	=92	=92	=92	=92	=92	=92	=92	=92	=92	=92	=92	=92	=92	=92	=92	=92	=92	=92	=92	=92	=92
2.r	2.r	.	2.r	2.r	.	2.r	2.r	.	2.r	2.r	.	2.r	.	(4ee-\	.	2.cn/	.	2.cn\)	.	2E-\]	.
.	.	.	.	.	.	.	.	.	.	.	.	.	.	4ccn\	.	.	.	.	.	.	.
.	.	.	.	.	.	.	.	.	.	.	.	.	.	4gg\)	.	.	.	.	.	4En\	.
=93	=93	=93	=93	=93	=93	=93	=93	=93	=93	=93	=93	=93	=93	=93	=93	=93	=93	=93	=93	=93	=93
2.r	2.r	.	2.r	2.r	.	2.r	2.r	.	2.r	2.r	.	2.r	.	(8b-\L	.	2d/	.	2d\	.	2.F\	.
.	.	.	.	.	.	.	.	.	.	.	.	.	.	8ccn\	.	.	.	.	.	.	.
.	.	.	.	.	.	.	.	.	.	.	.	.	.	8dd\	.	.	.	.	.	.	.
.	.	.	.	.	.	.	.	.	.	.	.	.	.	8ee-\	.	.	.	.	.	.	.
.	.	.	.	.	.	.	.	.	.	.	.	.	.	8cc\	.	4e-/	.	(8A/L	.	.	.
.	.	.	.	.	.	.	.	.	.	.	.	.	.	8a\J)	.	.	.	8cn/J)	.	.	.
=94	=94	=94	=94	=94	=94	=94	=94	=94	=94	=94	=94	=94	=94	=94	=94	=94	=94	=94	=94	=94	=94
*v	*v	*	*	*	*	*	*	*	*	*	*	*	*	*	*	*	*	*	*	*	*
*	*	*v	*v	*	*	*	*	*	*	*	*	*	*	*	*	*	*	*	*	*
*	*	*	*	*v	*v	*	*	*	*	*	*	*	*	*	*	*	*	*	*
*	*	*	*	*	*	*v	*v	*	*	*	*	*	*	*	*	*	*	*
4r	.	4r	.	4r	.	4r	.	4r	.	4b-\	.	4d/	.	4B-/	.	4BB-/	.
4r	.	4r	.	4r	.	4r	.	4r	.	4r	.	4r	.	4r	.	4r	.
=:|!	=:|!	=:|!	=:|!	=:|!	=:|!	=:|!	=:|!	=:|!	=:|!	=:|!	=:|!	=:|!	=:|!	=:|!	=:|!	=:|!	=:|!
*>E	*	*>E	*	*>E	*	*>E	*	*>E	*	*>E	*	*>E	*	*>E	*	*>E	*
4r	.	4r	.	4r	.	4r	.	4r	.	(4dd\	p	4r	.	4r	.	4r	.
2ryy	.	2ryy	.	2ryy	.	2ryy	.	2ryy	.	2ryy	.	2ryy	.	2ryy	.	2ryy	.
=95	=95	=95	=95	=95	=95	=95	=95	=95	=95	=95	=95	=95	=95	=95	=95	=95	=95
*^	*	*^	*	*^	*	*^	*	*	*	*	*	*	*	*	*	*	*
2.r	2.r	.	2.r	2.r	.	2.r	2.r	.	2.r	2.r	.	2.r	.	2ffn\)	.	4b-\	p	2.r	.	2.r	.
.	.	.	.	.	.	.	.	.	.	.	.	.	.	.	.	4b-\	.	.	.	.	.
.	.	.	.	.	.	.	.	.	.	.	.	.	.	(4dd\	.	4b-\	.	.	.	.	.
=96	=96	=96	=96	=96	=96	=96	=96	=96	=96	=96	=96	=96	=96	=96	=96	=96	=96	=96	=96	=96	=96
2.r	2.r	.	2.r	2.r	.	2.r	2.r	.	2.r	2.r	.	2.r	.	2ffn\)	.	4b-\	.	2.r	.	2.r	.
.	.	.	.	.	.	.	.	.	.	.	.	.	.	.	.	4b-\	.	.	.	.	.
.	.	.	.	.	.	.	.	.	.	.	.	.	.	(4dd\	.	4b-\	.	.	.	.	.
=97	=97	=97	=97	=97	=97	=97	=97	=97	=97	=97	=97	=97	=97	=97	=97	=97	=97	=97	=97	=97	=97
2.r	2.r	.	2.r	2.r	.	2.r	2.r	.	2.r	2.r	.	2.r	.	2ff#\)	.	[2.dd\	.	4b-\	p	2.r	.
.	.	.	.	.	.	.	.	.	.	.	.	.	.	.	.	.	.	4b-\	.	.	.
.	.	.	.	.	.	.	.	.	.	.	.	.	.	(4dd\	.	.	.	4b-\	.	.	.
=98	=98	=98	=98	=98	=98	=98	=98	=98	=98	=98	=98	=98	=98	=98	=98	=98	=98	=98	=98	=98	=98
2.r	2.r	.	2.r	2.r	.	2.r	2.r	.	2.r	2.r	.	2.r	.	2gg\)	.	2.dd\_	.	4b-\	.	2.r	.
.	.	.	.	.	.	.	.	.	.	.	.	.	.	.	.	.	.	4b-\	.	.	.
.	.	.	.	.	.	.	.	.	.	.	.	.	.	(4dd\	.	.	.	4b-\	.	.	.
=99	=99	=99	=99	=99	=99	=99	=99	=99	=99	=99	=99	=99	=99	=99	=99	=99	=99	=99	=99	=99	=99
*	*	*	*v	*v	*	*	*	*	*	*	*	*	*	*	*	*	*	*	*	*	*
!	!	!	! zu 2	!	!	!	!	!	!	!	!	!	!	!	!	!	!	!	!	!
!	!	!	!	!	!	!	!	!	!	!	!	!	!	!	!	!	!	!	!	!
2.r	2.r	.	4B-\	p	2.r	2.r	.	2.r	2.r	.	2.r	.	2gg#\)	.	2.dd\]	.	4b-\	.	2.r	.
.	.	.	4B-\	.	.	.	.	.	.	.	.	.	.	.	.	.	4b-\	.	.	.
.	.	.	4B-\	.	.	.	.	.	.	.	.	.	(4dd\	.	.	.	4b-\	.	.	.
=100	=100	=100	=100	=100	=100	=100	=100	=100	=100	=100	=100	=100	=100	=100	=100	=100	=100	=100	=100	=100
2.r	2.r	.	[2.A\	.	2.r	2.r	.	2.r	2.r	.	2.r	.	&(2.aa\)	.	2.cc#\	.	4a\	.	2.r	.
.	.	.	.	.	.	.	.	.	.	.	.	.	.	.	.	.	4a\	.	.	.
.	.	.	.	.	.	.	.	.	.	.	.	.	.	.	.	.	4a\	.	.	.
=101	=101	=101	=101	=101	=101	=101	=101	=101	=101	=101	=101	=101	=101	=101	=101	=101	=101	=101	=101	=101
2.r	2.r	.	2.A\_	.	2.r	2.r	.	2.r	2.r	.	2.r	.	2.gg#\	.	(4dd\	.	4a\	.	2.r	.
.	.	.	.	.	.	.	.	.	.	.	.	.	.	.	4ffn\	.	4a\	.	.	.
.	.	.	.	.	.	.	.	.	.	.	.	.	.	.	4dd\)	.	4a\	.	.	.
=102	=102	=102	=102	=102	=102	=102	=102	=102	=102	=102	=102	=102	=102	=102	=102	=102	=102	=102	=102	=102
2.r	2.r	.	2.A\_	.	2.r	2.r	.	2.r	2.r	.	2.r	.	2.aa\	.	2.cc#\	.	4a\	.	2.r	.
.	.	.	.	.	.	.	.	.	.	.	.	.	.	.	.	.	4a\	.	.	.
.	.	.	.	.	.	.	.	.	.	.	.	.	.	.	.	.	4a\	.	.	.
=103	=103	=103	=103	=103	=103	=103	=103	=103	=103	=103	=103	=103	=103	=103	=103	=103	=103	=103	=103	=103
2.r	2.r	.	2.A\_	.	2.r	2.r	.	2.r	2.r	.	2.r	.	2.gg#\	.	(4dd\	.	4a\	.	2.r	.
.	.	.	.	.	.	.	.	.	.	.	.	.	.	.	4ffn\	.	4a\	.	.	.
.	.	.	.	.	.	.	.	.	.	.	.	.	.	.	4dd\)	.	4a\	.	.	.
=104	=104	=104	=104	=104	=104	=104	=104	=104	=104	=104	=104	=104	=104	=104	=104	=104	=104	=104	=104	=104
*v	*v	*	*	*	*	*	*	*	*	*	*	*	*	*	*	*	*	*	*	*
*	*	*	*	*v	*v	*	*	*	*	*	*	*	*	*	*	*	*	*	*
*	*	*	*	*	*	*v	*v	*	*	*	*	*	*	*	*	*	*	*
4r	.	2A;\]	.	4r	.	4r	.	4r	.	2aa;\&)	.	2cc#;\	.	2a;\	.	4r	.
!	!	!	!	!	!	!	!	!	!	!	!	!	!	!	!	! Men. D.C.	!
4r	.	.	.	4r	.	4r	.	4r	.	.	.	.	.	.	.	4r	.
==|!	==|!	==|!	==|!	==|!	==|!	==|!	==|!	==|!	==|!	==|!	==|!	==|!	==|!	==|!	==|!	==|!	==|!
*-	*-	*-	*-	*-	*-	*-	*-	*-	*-	*-	*-	*-	*-	*-	*-	*-	*-
!!!RWG: Appoggiaturas of spine 'Fagotto 1, 2' need manual editing in measures: 49
!!!RWG: Appoggiaturas of spine 'Violino I' need manual editing in measures: 8, 16, 42, 44, 49
!!!RWG: Appoggiaturas of spine 'Violino II' need manual editing in measures: 44, 49
!!!RWG: Appoggiaturas of spine 'Viola' need manual editing in measures: 42
!!!RWG: Key is interpreted using the Humdrum key tool.
!!!OPT: London
!!!AFT: stage2
!!!END: 1995/11/24
!!format changes:
!!content changes:
!!public access: complete
!!!KEY: 2797231754
!!!EMD: Converted from MuseData to Humdrum Dec 16, 2000, by Andreas Kornstaedt using muse2kern.
